!!!!SEGMENT: pl-cz--iii-451--002_maader-ludwik--missa-g-gloria.krn
!!!cenid: 18xx:962
!!!COM: Maader, Ludwik
!!!COM-rismid: pe30020328
!!!CDT: <1794->1798
!!!CNT:
!!!OPR: Missa G
!!!OTL: Gloria
!!!OMV: 002
!!!PDT: 1815
!!!AGN: Sacred; Mass
!!!SMS-siglum: PL-CZ
!!!SMS-shelfmark: III-451
!!!SMS-shelfwork: 001-002 M
!!!SMS-variant:
!!!SMS-altvar:
!!!NIFC-rismid: 300000763
!!!URL-scan: http://repozytorium.nifc.pl/skany/pl-cz-nut--iii-451
!!!ONB-nifc: UWAGA: części Mszy: Kyrie, Gloria, Credo, Et incarnatus, Sanctus, Pleni sunt, Benedicuts, Agnus Dei
!!!key: G
**kern	**fba	**kern	**text	**dynam	**kern	**dynam	**kern	**dynam	**kern	**text	**kern	**text	**kern	**text	**kern	**kern	**kern	**dynam	**kern	**dynam
*	*	*	*	*	*group4	*	*group4	*	*group3	*	*group3	*	*group3	*	*group2	*group2	*group1	*	*group1	*
*part10	*	*part10	*part10	*part10	*part9	*part9	*part8	*part8	*part7	*part7	*part6	*part6	*part5	*part5	*part4	*part3	*part2	*part2	*part1	*part1
*staff11	*	*staff10	*staff10	*	*staff9	*	*staff8	*	*staff7	*staff7	*staff6	*staff6	*staff5	*staff5	*staff4	*staff3	*staff2	*	*staff1	*
*I"ORGANO CONCERTANDO	*	*I"ORGANO CONCERTANDO	*	*	*I"Violino SECONDO	*	*I"Violino Primo	*	*I"BASSO	*	*I"CANTO SECONDO	*	*I"CANTO Primo	*	*I"Cornu SeCondo	*I"Cornu Primo	*I"flauto Secundo	*	*I"flauto Primo	*
*I'org	*	*I'org	*	*	*I'vl 2	*	*I'vl 1	*	*I'B	*	*I'S 2	*	*I'S 1	*	*I'cor 2	*I'cor 1 in G	*I'fl 2	*	*I'fl 1	*
*Iorgan	*	*Iorgan	*	*	*Ivioln	*	*Ivioln	*	*Ibass	*	*Isoprn	*	*Isoprn	*	*Icor	*Icor	*Iflt	*	*Iflt	*
*Iklav	*	*ICklav	*	*	*ICstr	*	*ICstr	*	*ICvox	*	*ICvox	*	*ICvox	*	*ICbras	*ICbras	*ICww	*	*ICww	*
*	*	*	*	*	*	*	*	*	*IGcoro	*	*IGcoro	*	*IGcoro	*	*	*	*	*	*	*
*	*	*	*	*	*	*	*	*	*oclefC1	*	*	*	*	*	*	*	*	*	*	*
*clefF4	*	*clefG2	*	*	*clefG2	*	*clefG2	*	*clefF4	*	*clefC1	*	*clefC1	*	*clefG2	*clefG2	*clefG2	*	*clefG2	*
*ITrd-1c-2	*	*ITrd-1c-2	*	*	*	*	*	*	*	*	*	*	*	*	*ITrd3c5	*ITrd3c5	*	*	*	*
*k[f#]	*	*k[f#]	*	*	*k[f#]	*	*k[f#]	*	*k[f#]	*	*k[f#]	*	*k[f#]	*	*k[f#]	*k[f#]	*k[f#]	*	*k[f#]	*
*G:	*	*G:	*	*	*G:	*	*G:	*	*G:	*	*G:	*	*G:	*	*	*	*G:	*	*G:	*
*M2/4	*	*M2/4	*	*	*M2/4	*	*M2/4	*	*M2/4	*	*M2/4	*	*M2/4	*	*M2/4	*M2/4	*M2/4	*	*M2/4	*
=1	=1	=1	=1	=1	=1	=1	=1	=1	=1	=1	=1	=1	=1	=1	=1	=1	=1	=1	=1	=1
*all\right	*	*all\right	*	*	*all\right	*	*all\right	*	*all\right	*	*all\right	*	*all\right	*	*all\right	*all\right	*all\right	*	*all\right	*
*	*	*	*	*	*	*	*	*	*	*	*	*	*	*	*	*	*	*^	*	*
!LO:TX:t=P:problem:mixed beam	!	!LO:TX:t=P:problem:organo zapisane w transpozycji "in D".	!	!	!	!	!LO:TX:b:i:rj:t=Tutti	!LO:DY:a	!	!	!	!	!	!	!LO:TX:a:t=1	!LO:TX:a:t=1	!	!	!	!	!
!	!	!LO:TX:a:rj:t=Moderato:color=red	!	!LO:DY:a:t=forte	!LO:TX:a:rj:t=Moderato:color=red	!	!LO:TX:a:rj:t=Moderato:color=red	!LO:DY:a:t=forte	!LO:TX:a:rj:t=Moderato:color=red	!	!LO:TX:a:rj:t=Moderato:color=red	!	!LO:TX:a:rj:t=Moderato:color=red	!	!LO:TX:a:rj:t=Moderato:color=red	!LO:TX:a:rj:t=Moderato:color=red	!LO:TX:a:rj:t=Moderato:color=red	!LO:DY:a:t=forte	!LO:DY:b:t=forte	!LO:TX:a:rj:t=Moderato:color=red	!LO:DY:a:t=forte
16GG/LL	.	8bL 8g/	Et	f	8g/L	.	8b\L|	f	8G\	Et	8g\	Et	8b\	t	2r	2r	8gg\L	f	f	8bb\L	f
16G\	.	.	.	.	.	.	.	.	.	.	.	.	.	.	.	.	.	.	.	.	.
16D\	.	8bJ 8g/	in	.	8g/	.	8b\|	.	8G\	in	8g\	in	8b\	in	.	.	8gg\	.	.	8bb\	.
16G\JJ	.	.	.	.	.	.	.	.	.	.	.	.	.	.	.	.	.	.	.	.	.
*rep	*	*	*	*	*	*	*	*	*	*	*	*	*	*	*	*	*	*	*	*	*
!LO:TX:t=P:problem:mixed beam	!	!	!	!	!	!	!	!	!	!	!	!	!	!	!	!	!	!	!	!	!
16GG/LL	.	8ccL 8a/	ter-	.	8a/	.	8cc\|	.	8D\	ter-	8a\	ter-	8cc\	ter-	.	.	8aa\|	.	.	8ccc\	.
16G\	.	.	.	.	.	.	.	.	.	.	.	.	.	.	.	.	.	.	.	.	.
16D\	.	8ccJ 8a/	-ra	.	8a/J	.	8cc\J|	.	8D\	-ra	8a\	-ra	8cc\	-ra	.	.	8aa\|J	.	.	8ccc\J	.
16G\JJ	.	.	.	.	.	.	.	.	.	.	.	.	.	.	.	.	.	.	.	.	.
*Xrep	*	*	*	*	*	*	*	*	*	*	*	*	*	*	*	*	*	*	*	*	*
*	*	*	*	*	*	*	*	*	*	*	*	*	*	*	*	*	*	*v	*v	*	*
=2	=2	=2	=2	=2	=2	=2	=2	=2	=2	=2	=2	=2	=2	=2	=2	=2	=2	=2	=2	=2
*rep	*	*	*	*	*	*	*	*	*	*	*	*	*	*	*	*	*	*	*	*
!LO:TX:t=P:problem:mixed beam	!	!	!	!	!LO:TX:a:i:rj:t=Tutt	!	!	!	!	!	!	!	!	!	!	!	!	!	!	!
16GG/LL	.	4dd 4b/	pax	.	4b/	.	4dd\|	.	4G\	pax	4b\	pax	4dd\	pax	8r	8r	4bb\	.	4ddd\	.
16G\	.	.	.	.	.	.	.	.	.	.	.	.	.	.	.	.	.	.	.	.
16D\	.	.	.	.	.	.	.	.	.	.	.	.	.	.	16G/LL	16.g\LL	.	.	.	.
16G\JJ	.	.	.	.	.	.	.	.	.	.	.	.	.	.	16G/JJ	.	.	.	.	.
.	.	.	.	.	.	.	.	.	.	.	.	.	.	.	.	32g\JJk	.	.	.	.
*Xrep	*	*	*	*	*	*	*	*	*	*	*	*	*	*	*	*	*	*	*	*
*rep	*	*	*	*	*	*	*	*	*	*	*	*	*	*	*	*	*	*	*	*
!LO:TX:t=P:problem:mixed beam	!	!	!	!	!	!	!	!	!	!	!	!	!	!	!	!	!	!	!	!
16GG/LL	.	8r	.	.	8r	.	8r	.	4r	.	4r	.	4r	.	8G/	8g\	8r	.	8r	.
16G\	.	.	.	.	.	.	.	.	.	.	.	.	.	.	.	.	.	.	.	.
16D\	.	8cc 8a/	.	.	8a/	.	8cc\	.	.	.	.	.	.	.	8r	8r	8aa\	.	8ccc\	.
16G\JJ	.	.	.	.	.	.	.	.	.	.	.	.	.	.	.	.	.	.	.	.
*Xrep	*	*	*	*	*	*	*	*	*	*	*	*	*	*	*	*	*	*	*	*
=3	=3	=3	=3	=3	=3	=3	=3	=3	=3	=3	=3	=3	=3	=3	=3	=3	=3	=3	=3	=3
*rep	*	*	*	*	*	*	*	*	*	*	*	*	*	*	*	*	*	*	*	*
!LO:TX:t=P:problem:mixed beam	!	!	!	!	!	!	!	!	!	!	!	!	!	!	!LO:TX:a:t=1	!LO:TX:a:t=1	!	!	!	!
16GG/LL	.	8bL 8g 8B/	et	.	8g/L	.	8b\L|	.	8B\	pax	8g\	pax	8b\	pax	2r	2r	8gg\|L	.	8bb\L	.
16G\	.	.	.	.	.	.	.	.	.	.	.	.	.	.	.	.	.	.	.	.
16D\	.	8bJ 8g 8B/	in	.	16g/L	.	8b\|	.	8B\	ho-	8g\	ho-	8b\	ho-	.	.	(16gg\L	.	8bb\	.
16G\JJ	.	.	.	.	16d/JJ	.	.	.	.	.	.	.	.	.	.	.	16dd\JJ)	.	.	.
*Xrep	*	*	*	*	*	*	*	*	*	*	*	*	*	*	*	*	*	*	*	*
*rep	*	*	*	*	*	*	*	*	*	*	*	*	*	*	*	*	*	*	*	*
!LO:TX:t=P:problem:mixed beam	!	!	!	!	!	!	!	!	!	!	!	!	!	!	!	!	!	!	!	!
16GG/LL	.	8aL 8c/	ter-	.	8c/L	.	8a\|	.	8c\	-mi-	8f#\	-mi-	8a\	-mi-	.	.	8cc\|L	.	8aa\	.
16G\	.	.	.	.	.	.	.	.	.	.	.	.	.	.	.	.	.	.	.	.
!	!	!	!	!	!LO:TX:b:t=c	!	!	!	!	!	!	!	!	!	!	!	!	!	!	!
16D\	.	8aJ 8c/	-ra	.	8c/J	.	8a\J|	.	8c\	-ni-	8f#\	-ni-	8a\	-ni-	.	.	8cc\|J	.	8aa\J	.
16G\JJ	.	.	.	.	.	.	.	.	.	.	.	.	.	.	.	.	.	.	.	.
*Xrep	*	*	*	*	*	*	*	*	*	*	*	*	*	*	*	*	*	*	*	*
=4	=4	=4	=4	=4	=4	=4	=4	=4	=4	=4	=4	=4	=4	=4	=4	=4	=4	=4	=4	=4
*rep	*	*	*	*	*	*	*	*	*	*	*	*	*	*	*	*	*	*	*	*
!LO:TX:t=P:problem:mixed beam	!	!	!	!	!	!	!	!	!	!	!	!	!	!	!	!	!	!	!	!
16GG/LL	.	4g 4B/	pax	.	4B/	.	4g/	.	4B\	-bus	4g\	-bus	4g\	-bus	8r	8r	4b\	.	4gg\	.
16G\	.	.	.	.	.	.	.	.	.	.	.	.	.	.	.	.	.	.	.	.
16D\	.	.	.	.	.	.	.	.	.	.	.	.	.	.	16G/LL	16.g\LL	.	.	.	.
16G\JJ	.	.	.	.	.	.	.	.	.	.	.	.	.	.	16G/JJ	.	.	.	.	.
.	.	.	.	.	.	.	.	.	.	.	.	.	.	.	.	32g\JJk	.	.	.	.
*Xrep	*	*	*	*	*	*	*	*	*	*	*	*	*	*	*	*	*	*	*	*
*rep	*	*	*	*	*	*	*	*	*	*	*	*	*	*	*	*	*	*	*	*
!LO:TX:t=P:problem:mixed beam	!	!	!	!	!	!	!	!	!	!	!	!	!	!	!	!	!	!	!	!
16GG/LL	.	8r	.	.	8r	.	8r	.	4r	.	4r	.	4r	.	8G/	8g\	8r	.	8r	.
16G\	.	.	.	.	.	.	.	.	.	.	.	.	.	.	.	.	.	.	.	.
16D\	.	16aLL 16f#/	.	.	16f#/LL	.	(16a/LL	.	.	.	.	.	.	.	8r	8r	16ff#\LL	.	16aa\LL	.
16G\JJ	.	16ccJJ 16a/	.	.	16a/JJ	.	16cc/JJ)	.	.	.	.	.	.	.	.	.	16aa\JJ	.	16ccc\JJ	.
*Xrep	*	*	*	*	*	*	*	*	*	*	*	*	*	*	*	*	*	*	*	*
=5	=5	=5	=5	=5	=5	=5	=5	=5	=5	=5	=5	=5	=5	=5	=5	=5	=5	=5	=5	=5
*rep	*	*	*	*	*	*	*	*	*	*	*	*	*	*	*	*	*	*	*	*
!LO:TX:t=P:problem:mixed beam	!	!	!	!	!	!	!	!	!	!	!	!	!	!	!LO:TX:a:t=1	!LO:TX:a:t=1	!	!	!	!
16GG/LL	.	8b 8g/	pax	.	8g/L	.	8b\|L	.	8G\	pax	8g\|L	pax	8b\|L	pax	2r	2r	8gg\L	.	8bb\L	.
16G\	.	.	.	.	.	.	.	.	.	.	.	.	.	.	.	.	.	.	.	.
16D\	.	16bLL 16g/	ho-	.	8g/	.	8b\|	.	8G\	ho-	(16g\L	ho-	(16b\L	ho-	.	.	8gg\	.	8bb\	.
16G\JJ	.	16ddJJ 16b/	.	.	.	.	.	.	.	.	16b\JJ)	.	16dd\JJ)	.	.	.	.	.	.	.
*Xrep	*	*	*	*	*	*	*	*	*	*	*	*	*	*	*	*	*	*	*	*
*rep	*	*	*	*	*	*	*	*	*	*	*	*	*	*	*	*	*	*	*	*
!LO:TX:t=P:problem:mixed beam	!	!	!	!	!	!	!	!	!	!	!	!	!	!	!	!	!	!	!	!
16GG/LL	.	8cc 8a/	-mi-	.	8a/	.	8cc\|	.	8G\	-mi-	8a\|L	-mi-	8cc\|L	-mi-	.	.	8aa\	.	8ccc\	.
16G\	.	.	.	.	.	.	.	.	.	.	.	.	.	.	.	.	.	.	.	.
16D\	.	16ccLL 16a/	-ni-	.	8a/J	.	8cc\|J	.	8G\	-ni-	(16a\L	-ni-	(16cc\L	-ni-	.	.	8aa\J	.	8ccc\J	.
16G\JJ	.	16eeJJ 16cc/	.	.	.	.	.	.	.	.	16cc\JJ)	.	16ee\JJ)	.	.	.	.	.	.	.
*Xrep	*	*	*	*	*	*	*	*	*	*	*	*	*	*	*	*	*	*	*	*
!	!	!	!	!	!	!	!	!	!LO:LB:g=original	!	!LO:LB:g=original	!	!LO:LB:g=original	!	!	!	!	!	!	!
=6	=6	=6	=6	=6	=6	=6	=6	=6	=6	=6	=6	=6	=6	=6	=6	=6	=6	=6	=6	=6
*rep	*	*	*	*	*	*	*	*	*	*	*	*	*	*	*	*	*	*	*	*
!LO:TX:t=P:problem:mixed beam	!	!	!	!	!	!	!	!	!	!	!	!	!	!	!	!	!	!	!	!
16GG/LL	.	4dd 4b/	-bus	.	4b/	.	4dd\|	.	4G\	-bus	4b\	-bus	4dd\	-bus	8r	8r	8bb\L	.	4ddd\	.
16G\	.	.	.	.	.	.	.	.	.	.	.	.	.	.	.	.	.	.	.	.
16D\	.	.	.	.	.	.	.	.	.	.	.	.	.	.	16G/LL	16.g\LL	8bb\J	.	.	.
16G\J	.	.	.	.	.	.	.	.	.	.	.	.	.	.	16G/JJ	.	.	.	.	.
.	.	.	.	.	.	.	.	.	.	.	.	.	.	.	.	32g\JJk	.	.	.	.
*Xrep	*	*	*	*	*	*	*	*	*	*	*	*	*	*	*	*	*	*	*	*
*rep	*	*	*	*	*	*	*	*	*	*	*	*	*	*	*	*	*	*	*	*
!LO:TX:t=P:problem:mixed beam	!	!	!	!	!	!	!	!	!	!	!	!	!	!	!	!	!	!	!	!
16GG/LL	.	8r	.	.	8r	.	8r	.	4r	.	4r	.	4r	.	8G/	8g\	8r	.	8r	.
16G\	.	.	.	.	.	.	.	.	.	.	.	.	.	.	.	.	.	.	.	.
16D\	.	8cc 8a/	.	.	8a/	.	8cc\	.	.	.	.	.	.	.	8r	8r	8aa\	.	8ccc\	.
16G\JJ	.	.	.	.	.	.	.	.	.	.	.	.	.	.	.	.	.	.	.	.
*Xrep	*	*	*	*	*	*	*	*	*	*	*	*	*	*	*	*	*	*	*	*
!LO:LB:g=original	!	!LO:LB:g=original	!	!	!	!	!	!	!	!	!	!	!	!	!	!	!	!	!	!
=7	=7	=7	=7	=7	=7	=7	=7	=7	=7	=7	=7	=7	=7	=7	=7	=7	=7	=7	=7	=7
*rep	*	*	*	*	*	*	*	*	*	*	*	*	*	*	*	*	*	*	*	*
!LO:TX:t=P:problem:mixed beam	!	!	!	!	!	!	!	!	!	!	!	!	!	!	!LO:TX:a:t=1	!LO:TX:a:t=1	!	!	!	!
16GG/LL	.	8bL 8g 8B/	pax	.	8.g/L	.	8b\L	.	8BB/	pax	8g\	pax	8b\	pax	2r	2r	8gg\L	.	8bb\L	.
16G\	.	.	.	.	.	.	.	.	.	.	.	.	.	.	.	.	.	.	.	.
16D\	.	8bJ 8g 8B/	ho-	.	.	.	8b\	.	8BB/	ho-	8g\	ho-	8b\	ho-	.	.	8gg\	.	8bb\	.
16G\JJ	.	.	.	.	16g/Jk	.	.	.	.	.	.	.	.	.	.	.	.	.	.	.
*Xrep	*	*	*	*	*	*	*	*	*	*	*	*	*	*	*	*	*	*	*	*
*rep	*	*	*	*	*	*	*	*	*	*	*	*	*	*	*	*	*	*	*	*
!LO:TX:t=P:problem:mixed beam	!	!	!	!	!	!	!	!	!	!	!	!	!	!	!	!	!	!	!	!
16GG/LL	.	8aL 8c/	-mi-	.	8c/L	.	8a\	.	8C/	-mi-	8c/	-mi-	8a\	-mi-	.	.	8b\	.	8aa\	.
16G\	.	.	.	.	.	.	.	.	.	.	.	.	.	.	.	.	.	.	.	.
16D\	.	8aJ 8c/	-ni-	.	8c/J	.	8a\J	.	8C/	-ni-	8c/	-ni-	8a\	-ni-	.	.	8b\J	.	8aa\J	.
16G\JJ	.	.	.	.	.	.	.	.	.	.	.	.	.	.	.	.	.	.	.	.
*Xrep	*	*	*	*	*	*	*	*	*	*	*	*	*	*	*	*	*	*	*	*
!	!	!	!	!	!	!	!	!	!	!	!	!	!	!	!LO:LB:g=original	!LO:LB:g=original	!	!	!	!
=8	=8	=8	=8	=8	=8	=8	=8	=8	=8	=8	=8	=8	=8	=8	=8	=8	=8	=8	=8	=8
!LO:TX:t=P:problem:mixed beam	!	!	!	!	!	!	!	!	!	!	!	!	!	!	!	!	!	!	!	!
16GG/LL	.	4g 4B/	-bus	.	4B/	.	4g/	.	4BB/	-bus	4B/	-bus	4g\	-bus	8r	8r	4b\	.	4gg\	.
16G\	.	.	.	.	.	.	.	.	.	.	.	.	.	.	.	.	.	.	.	.
16D\	.	.	.	.	.	.	.	.	.	.	.	.	.	.	16G/LL	16.g\LL	.	.	.	.
16G\JJ	.	.	.	.	.	.	.	.	.	.	.	.	.	.	16G/JJ	.	.	.	.	.
.	.	.	.	.	.	.	.	.	.	.	.	.	.	.	.	32g\JJk	.	.	.	.
!LO:N:vis=4	!	!	!	!	!	!	!	!	!	!	!	!	!	!	!	!	!	!	!	!
8GG/	.	16r	.	.	4r	.	4r	.	4r	.	4r	.	4r	.	8G/	8g\	4r	.	4r	.
!	!	!	!	!LO:DY:a:t=Piano	!	!	!	!	!	!	!	!	!	!	!	!	!	!	!	!
.	.	16f#/LL	.	p	.	.	.	.	.	.	.	.	.	.	.	.	.	.	.	.
8r	.	16b/	.	.	.	.	.	.	.	.	.	.	.	.	8r	8r	.	.	.	.
.	.	16dd/JJ	.	.	.	.	.	.	.	.	.	.	.	.	.	.	.	.	.	.
!	!	!	!	!	!	!	!	!	!	!	!	!	!	!	!	!	!	!	!LO:LB:g=original	!
=9	=9	=9	=9	=9	=9	=9	=9	=9	=9	=9	=9	=9	=9	=9	=9	=9	=9	=9	=9	=9
*	*	*	*	*	*	*	*	*	*	*	*	*	*	*	*	*	*	*	*	*^
*	*	*	*	*	*	*	*	*	*	*	*	*	*	*	*	*	*2\right	*	*2\right	*	*
!	!	!	!	!	!	!LO:DY:b:t=po.	!	!LO:DY:a:t=Pia	!	!	!LO:TX:a:t=8	!	!	!	!LO:TX:a:t=4	!LO:TX:a:t=4	!	!LO:DY:a:rj:t=Pia	!	!LO:DY:a:rj:t=Pia	!LO:DY:b:t=piano
16G\LL	.	8ee\	bo-	.	8cc\	p	8ee\	p	8c\	bo-	0r	.	8ee\	bo-	0r	0r	2ccc\	p	2eee\	p	p
16e\	.	.	.	.	.	.	.	.	.	.	.	.	.	.	.	.	.	.	.	.	.
16B\	.	8cc\	-ne	.	8r	.	8r	.	8c\	-ne	.	.	8cc\	-ne	.	.	.	.	.	.	.
16e\JJ	.	.	.	.	.	.	.	.	.	.	.	.	.	.	.	.	.	.	.	.	.
*rep	*	*	*	*	*	*	*	*	*	*	*	*	*	*	*	*	*	*	*	*	*
16G\LL	.	16cc\LL	vo-	.	8cc\	.	8ee\	.	(8c\L	Vo-	.	.	(16cc\LL	vo-	.	.	.	.	.	.	.
16e\	.	16b\JJ	.	.	.	.	.	.	.	.	.	.	16b\JJ)	.	.	.	.	.	.	.	.
16B\	.	16cc\LL	-lun-	.	8r	.	8r	.	8G\J)	-lun-	.	.	(16cc\LL	-lun-	.	.	.	.	.	.	.
16e\JJ	.	16ee\JJ	.	.	.	.	.	.	.	.	.	.	16ee\JJ)	.	.	.	.	.	.	.	.
*Xrep	*	*	*	*	*	*	*	*	*	*	*	*	*	*	*	*	*	*	*	*	*
*	*	*	*	*	*	*	*	*	*	*	*	*	*	*	*	*	*	*	*	*v	*v
!	!	!	!	!	!	!	!	!	!	!	!	!	!	!	!	!	!LO:LB:g=original	!	!	!
=10	=10	=10	=10	=10	=10	=10	=10	=10	=10	=10	=10	=10	=10	=10	=10	=10	=10	=10	=10	=10
*	*	*	*	*	*	*	*	*	*	*	*	*	*	*	*	*	*tremolo	*	*	*
16G\LL	.	16dd\LL	-ta-	.	8b\	.	8dd\	.	8d\	-ta-	.	.	(16dd\LL	-ta-	.	.	8bb\L	.	2ddd\	.
16d\	.	16b\JJ	.	.	.	.	.	.	.	.	.	.	16b\JJ)	.	.	.	.	.	.	.
16B\	.	8g/	-tis	.	8r	.	8r	.	8G\	-tis	.	.	8g\	-tis	.	.	8bb\	.	.	.
16d\JJ	.	.	.	.	.	.	.	.	.	.	.	.	.	.	.	.	.	.	.	.
*rep	*	*	*	*	*	*	*	*	*	*	*	*	*	*	*	*	*	*	*	*
16G\LL	.	16r	.	.	8b\	.	8dd\	.	4r	.	.	.	4r	.	.	.	8bb\	.	.	.
16d\	.	16g/LL	.	.	.	.	.	.	.	.	.	.	.	.	.	.	.	.	.	.
16B\	.	16b/	.	.	8r	.	8r	.	.	.	.	.	.	.	.	.	8bb\J	.	.	.
16d\JJ	.	16dd/JJ	.	.	.	.	.	.	.	.	.	.	.	.	.	.	.	.	.	.
*Xrep	*	*	*	*	*	*	*	*	*	*	*	*	*	*	*	*	*	*	*	*
=11	=11	=11	=11	=11	=11	=11	=11	=11	=11	=11	=11	=11	=11	=11	=11	=11	=11	=11	=11	=11
16G\LL	.	8ee\	bo-	.	8cc\	.	8ee\	.	8c\	bo-	.	.	8ee\	bo-	.	.	8ccc\L	.	2eee\	.
16e\	.	.	.	.	.	.	.	.	.	.	.	.	.	.	.	.	.	.	.	.
16B\	.	8cc\	-ne	.	8r	.	8r	.	8c\	-ne	.	.	8cc\	-ne	.	.	8ccc\	.	.	.
16e\JJ	.	.	.	.	.	.	.	.	.	.	.	.	.	.	.	.	.	.	.	.
*rep	*	*	*	*	*	*	*	*	*	*	*	*	*	*	*	*	*	*	*	*
16G\LL	.	16cc/LL	vo-	.	8cc\	.	8ee\	.	8c\	Vo-	.	.	(16cc\LL	vo-	.	.	8ccc\	.	.	.
16e\	.	16b/	.	.	.	.	.	.	.	.	.	.	16b\JJ)	.	.	.	.	.	.	.
16B\	.	16cc/	-lun-	.	8r	.	8r	.	8G\	-lun-	.	.	(16cc\LL	-lun-	.	.	8ccc\J	.	.	.
16e\JJ	.	16ee/JJ	.	.	.	.	.	.	.	.	.	.	16ee\JJ)	.	.	.	.	.	.	.
*Xrep	*	*	*	*	*	*	*	*	*	*	*	*	*	*	*	*	*Xtremolo	*	*	*
!	!	!	!	!	!LO:LB:g=original	!	!LO:LB:g=original	!	!	!	!	!	!	!	!	!	!	!	!	!
=12	=12	=12	=12	=12	=12	=12	=12	=12	=12	=12	=12	=12	=12	=12	=12	=12	=12	=12	=12	=12
16G\LL	.	16dd/LL	-ta-	.	8b\	.	8dd\	.	8d\	-ta-	.	.	(16dd\LL	-ta-	.	.	2bb\	.	2ddd\	.
16d\	.	16b/JJ	.	.	.	.	.	.	.	.	.	.	16b\JJ)	.	.	.	.	.	.	.
16B\	.	8g/	-tis	.	8r	.	8r	.	8G\	-tis	.	.	8g\	-tis	.	.	.	.	.	.
16d\JJ	.	.	.	.	.	.	.	.	.	.	.	.	.	.	.	.	.	.	.	.
8G\	.	16r	.	.	8b\	.	8dd\	.	4r	.	.	.	4r	.	.	.	.	.	.	.
.	.	16g/LL	Lau-	.	.	.	.	.	.	.	.	.	.	.	.	.	.	.	.	.
8r	.	16b/	.	.	8r	.	8r	.	.	.	.	.	.	.	.	.	.	.	.	.
.	.	16dd/JJ	.	.	.	.	.	.	.	.	.	.	.	.	.	.	.	.	.	.
!LO:LB:g=original	!	!LO:LB:g=original	!	!	!	!	!	!	!LO:LB:g=original	!	!	!	!LO:LB:g=original	!	!	!	!	!	!	!
=13	=13	=13	=13	=13	=13	=13	=13	=13	=13	=13	=13	=13	=13	=13	=13	=13	=13	=13	=13	=13
!	!	!	!	!	!LO:TX:a:t=1.	!	!LO:TX:a:t=1.	!	!	!	!	!	!	!	!	!	!	!	!	!
8A\L	.	16dd/LL	-da-	.	2r	.	2r	.	8d\	lau-	0r	.	(16dd\LL	lau-	4d/	4a\	4aa\	.	4ccc\	.
.	.	16cc/JJ	.	.	.	.	.	.	.	.	.	.	16cc\JJ)	.	.	.	.	.	.	.
8F#\J	.	16a/LL	.	.	.	.	.	.	8d\	-da-	.	.	(16a\LL	-da-	.	.	.	.	.	.
.	.	16cc/JJ	.	.	.	.	.	.	.	.	.	.	16cc\JJ)	.	.	.	.	.	.	.
!LO:TX:t=P:problem:mixed beam	!	!	!	!	!	!	!	!	!	!	!	!	!	!	!	!	!	!	!	!
8G\L	.	16cc/LL	.	.	.	.	.	.	8c\	-mus	.	.	(16cc\LL	.	4g\	4b\	4gg\	.	4bb\	.
.	.	16b/JJ	.	.	.	.	.	.	.	.	.	.	16b\JJ)	.	.	.	.	.	.	.
8C#/J	.	16g/LL	-mus	.	.	.	.	.	8B\	te	.	.	(16g\LL	-mus	.	.	.	.	.	.
.	.	16b/JJ	.	.	.	.	.	.	.	.	.	.	16b\JJ)	.	.	.	.	.	.	.
=14	=14	=14	=14	=14	=14	=14	=14	=14	=14	=14	=14	=14	=14	=14	=14	=14	=14	=14	=14	=14
.	.	8qqb 8qqg/	.	.	.	.	.	.	.	.	.	.	.	.	.	.	.	.	.	.
16D\LL	.	4a 4f#/	te	.	8r	.	8r	.	16B\	lau-	.	.	4a\	te	8r	8r	8ff#\	.	8aa\	.
16d\	.	.	.	.	.	.	.	.	16B\	-da-	.	.	.	.	.	.	.	.	.	.
!	!	!	!	!	!	!	!	!LO:DY:t=for	!	!	!	!	!	!	!	!	!	!	!	!
16D\	.	.	.	.	16d/LL	.	16d/LL	f	8A\	-mus	.	.	.	.	16.d/LL	16.a\LL	8r	.	8r	.
16d\JJ	.	.	.	.	16d/JJ	.	16d/JJ	.	.	.	.	.	.	.	.	.	.	.	.	.
.	.	.	.	.	.	.	.	.	.	.	.	.	.	.	32d/JJk	32a\JJk	.	.	.	.
8G\L	.	16r	.	.	8d/	.	8d/	.	4r	.	.	.	4r	.	8d/	8a\	4r	.	4r	.
.	.	16g/LL	be-	.	.	.	.	.	.	.	.	.	.	.	.	.	.	.	.	.
8G\J	.	16b/	-ne-	.	8r	.	8r	.	.	.	.	.	.	.	8r	8r	.	.	.	.
.	.	16dd/JJ	.	.	.	.	.	.	.	.	.	.	.	.	.	.	.	.	.	.
=15	=15	=15	=15	=15	=15	=15	=15	=15	=15	=15	=15	=15	=15	=15	=15	=15	=15	=15	=15	=15
!	!	!	!	!	!LO:TX:a:t=1.	!	!LO:TX:a:t=1.	!	!	!	!	!	!	!	!LO:TX:t=P:problem:takty 15-16 zapisane repetycją	!	!	!	!	!
8A\L	.	16dd/LL	-di-	.	2r	.	2r	.	8d\	be-	.	.	(16dd\LL	Be-	4d/yy	4a\	4aa\	.	4ccc\	.
.	.	16cc/JJ	.	.	.	.	.	.	.	.	.	.	16cc\JJ)	.	.	.	.	.	.	.
8F#\J	.	16a/LL	.	.	.	.	.	.	8d\	-ne-	.	.	(16a\LL	-ne-	.	.	.	.	.	.
.	.	16cc/JJ	.	.	.	.	.	.	.	.	.	.	16cc\JJ)	.	.	.	.	.	.	.
!LO:TX:t=P:problem:mixed beam	!	!	!	!	!	!	!	!	!	!	!	!	!	!	!	!	!	!	!	!
8G\L	.	16cc/LL	-ci-	.	.	.	.	.	8c\	-di-	.	.	(16cc\LL	-di-	4g\yy	4b\	4gg\	.	4bb\	.
.	.	16b/JJ	.	.	.	.	.	.	.	.	.	.	16b\JJ)	.	.	.	.	.	.	.
8C#/J	.	16g/LL	-mus	.	.	.	.	.	8B\	-ci-	.	.	(16g\LL	-ci-	.	.	.	.	.	.
.	.	16b/JJ	.	.	.	.	.	.	.	.	.	.	16b\JJ)	-mus	.	.	.	.	.	.
=16	=16	=16	=16	=16	=16	=16	=16	=16	=16	=16	=16	=16	=16	=16	=16	=16	=16	=16	=16	=16
.	.	8qqb 8qqg/	.	.	.	.	.	.	.	.	.	.	.	.	.	.	.	.	.	.
16D\LL	.	4a 4f#/	-te	.	8r	.	16d/LL	.	8B\	-mus	.	.	4a\	te	8ryy	8r	8ff#\	.	8aa\	.
16d\	.	.	.	.	.	.	16d/JJ	.	.	.	.	.	.	.	.	.	.	.	.	.
!	!	!	!	!	!	!	!LO:TX:t=P:problem:mixed beam	!	!	!	!	!	!	!	!	!	!	!	!	!
16c#\	.	.	.	.	16d/LL	.	8d/L	.	8A\	te	.	.	.	.	16.d/LLyy	16.a\LL	8r	.	8r	.
16d\JJ	.	.	.	.	16d/JJ	.	.	.	.	.	.	.	.	.	.	.	.	.	.	.
.	.	.	.	.	.	.	.	.	.	.	.	.	.	.	32d/JJkyy	32a\JJk	.	.	.	.
!	!	!	!	!	!LO:TX:t=P:problem:mixed beam	!	!	!	!	!	!	!	!	!	!	!	!	!	!	!
8D/	.	8r	.	.	8d/L	.	16dd\L	.	4r	.	.	.	4r	.	8d/yy	8a\	4r	.	4r	.
.	.	.	.	.	.	.	16cc\JJ	.	.	.	.	.	.	.	.	.	.	.	.	.
8r	.	16ddLL 16b/	gra-	.	16b\L	.	8r	.	.	.	.	.	.	.	8ryy	8r	.	.	.	.
.	.	16ccJJ 16a/	-ti-	.	16a\JJ	.	.	.	.	.	.	.	.	.	.	.	.	.	.	.
=17	=17	=17	=17	=17	=17	=17	=17	=17	=17	=17	=17	=17	=17	=17	=17	=17	=17	=17	=17	=17
*	*	*	*	*	*tremolo	*	*tremolo	*	*	*	*	*	*	*	*	*	*	*	*	*
8r	.	8bL 8g/	-as	.	8g/L	.	8b/L	.	8G\	gra-	8g\	gra-	8b\	Gra-	8r	8r	8gg\L	.	8bb\L	.
8G\L	.	8bJ 8g/	a-	.	8g/	.	8b/	.	16G\	-ti-	16g\	-ti-	16b\	-ti-	8g\L	(8b\L	8gg\	.	8bb\	.
.	.	.	.	.	.	.	.	.	16G\	-as	16g\	-as	16b\	-as	.	.	.	.	.	.
!	!	!	!	!	!	!	!	!	!	!	!	!	!	!	!LO:TX:b:t=g	!	!	!	!	!
8B\	.	8bL 8g/	-gi-	.	8g/	.	8b/	.	8B\	a-	8g\	a-	8b\	a-	8a 8d\	8cc\)	8gg\	.	8bb\	.
8G\J	.	8bJ 8g/	-mus	.	8g/J	.	8b/J	.	16G\	-gi-	16g\	-gi-	16b\	-gi-	8g\J	8b\|J	8gg\J	.	8bb\J	.
.	.	.	.	.	.	.	.	.	16G\	-mus	16g\	-mus	16b\	-mus	.	.	.	.	.	.
*	*	*	*	*	*Xtremolo	*	*Xtremolo	*	*	*	*	*	*	*	*	*	*	*	*	*
!	!	!	!	!	!	!	!	!	!LO:LB:g=original	!	!	!	!	!	!	!	!	!	!	!
=18	=18	=18	=18	=18	=18	=18	=18	=18	=18	=18	=18	=18	=18	=18	=18	=18	=18	=18	=18	=18
8r	.	16bLL 16g/	ti-	.	16g/LL	.	16b/LL	.	(16G\LL	ti-	(16g\LL	ti-	(16b\LL	ti-	8d/L	8a\L	(16gg\LL	.	(16bb\LL	.
.	.	16aJJ 16f#/	.	.	16f#/J	.	16a/J	.	16D\JJ)	.	16f#\JJ)	.	16a\JJ)	.	.	.	16ff#\J)	.	16aa\J)	.
!LO:TX:t=P:problem:mixed beam	!	!	!	!	!	!	!	!	!	!	!	!	!	!	!	!	!	!	!	!
8D/L	.	8a 8f#/	-bi	.	8f#/J	.	8a/J	.	8D\	-bi	8f#\	-bi	8a\	-bi	16d/L	16a\L	8ff#\J	.	8bb\J|	.
.	.	.	.	.	.	.	.	.	.	.	.	.	.	.	16d/JJ	16a\JJ	.	.	.	.
8d\	.	8r	.	.	8r	.	8r	.	4r	.	4r	.	4r	.	8d/	8a\	8r	.	8r	.
8D/J	.	16ddLL 16b/	pro-	.	16b/LL	.	16dd\LL	.	.	.	.	.	.	.	8r	8r	16bb\LL	.	16ddd\LL	.
.	.	16ccJJ 16a/	.	.	16a/JJ	.	16cc\JJ	.	.	.	.	.	.	.	.	.	16aa\JJ	.	16ccc\JJ	.
!LO:LB:g=original	!	!LO:LB:g=original	!	!	!	!	!	!	!	!	!	!	!LO:LB:g=original	!	!	!LO:LB:g=original	!	!	!	!
=19	=19	=19	=19	=19	=19	=19	=19	=19	=19	=19	=19	=19	=19	=19	=19	=19	=19	=19	=19	=19
.	.	.	.	.	16qqa/	.	8qqcc/	.	.	.	.	.	.	.	.	.	.	.	.	.
*	*	*Xtuplet	*	*	*	*	*	*	*	*	*	*	*	*	*	*	*	*	*	*
8r	.	12ee 12cc/	-pter	.	8g/L	.	8b\L	.	16G\	prop-	16g\	prop-	16b\	prop-	8r	8r	8aa\L	.	(8aa\L	.
.	.	.	.	.	.	.	.	.	16G\	-ter	16g\	-ter	16b\	-ter	.	.	.	.	.	.
.	.	12b 12g/	ma-	.	.	.	.	.	.	.	.	.	.	.	.	.	.	.	.	.
8G\L	.	.	.	.	8g/J	.	8b\J	.	16G\	ma-	16g\	ma-	16b\	ma-	8g\L	8b\L	8aa\J	.	8bb\J)	.
.	.	12b 12g/	-gnam	.	.	.	.	.	.	.	.	.	.	.	.	.	.	.	.	.
.	.	.	.	.	.	.	.	.	16G\	-gnam	16g\	-gnam	16b\	-gnam	.	.	.	.	.	.
!	!	!	!	!	!	!	!	!	!	!	!LO:LB:g=original	!	!	!	!	!	!	!	!	!
8B\	.	16bLL 16g/	glo-	.	16g/LL	.	(16b\LL	.	8B\	glo-	(16g\LL	glo-	(16b\LL	glo-	8a\	8cc\	16gg\LL	.	(16bb\LL	.
.	.	16ddJJ 16b/	.	.	16b/	.	16dd\)	.	.	.	16b\JJ)	.	16dd\JJ)	.	.	.	16bb\	.	16ddd\)	.
8G\J	.	16ccLL 16a/	-ri-	.	16a/	.	(16cc\	.	16G\	-ri-	16a\	-ri-	16cc\	-ri-	8g\J	8b\J	16aa\	.	(16ccc\	.
.	.	16bJJ 16g/	-am	.	16g/JJ	.	16b\JJ)	.	16G\	-am	16g\	-am	16b\	-am	.	.	16gg\JJ	.	16bb\JJ)	.
!	!	!	!	!	!	!	!	!	!	!	!	!	!	!	!	!	!	!	!LO:LB:g=original	!
=20	=20	=20	=20	=20	=20	=20	=20	=20	=20	=20	=20	=20	=20	=20	=20	=20	=20	=20	=20	=20
8r	.	16bLL 16g/	tu-	.	16g/LL	.	(16b\LL	.	8D\	tu-	16g/LL	tu-	(16b\LL	tu-	8d/L	8a\L	(16gg\LL	.	16bb\LL	.
.	.	16aJJ 16f#/	.	.	16f#/J	.	16a\J)	.	.	.	16f#/JJ	.	16a\JJ)	.	.	.	16ff#\J)	.	16aa\J	.
!LO:TX:t=P:problem:mixed beam	!	!	!	!	!	!	!	!	!	!	!	!	!	!	!	!	!	!	!	!
8D/L	.	8a 8f#/	-am	.	8f#/J	.	8a\|J	.	8D\	-am	8f#/	-am	8a\	-am	16d/L	16a\L	8ff#\|J	.	8aa\J	.
.	.	.	.	.	.	.	.	.	.	.	.	.	.	.	16d/JJ	16a\JJ	.	.	.	.
8d\J	.	8r	.	.	8r	.	8r	.	4r	.	8r	.	8r	.	8d/	8a\	8r	.	8r	.
8D/	.	16aLL 16f#/	prop-	.	8a/	.	8cc\	.	.	.	16f#\	prop-	16a\	prop-	8r	8r	8aa\	.	8ccc\	.
.	.	16ccJJ 16a/	-ter	.	.	.	.	.	.	.	16a\	-ter	16cc\	-ter	.	.	.	.	.	.
!	!	!	!	!	!	!	!	!	!	!	!	!	!	!	!LO:LB:g=original	!	!LO:LB:g=original	!	!	!
=21	=21	=21	=21	=21	=21	=21	=21	=21	=21	=21	=21	=21	=21	=21	=21	=21	=21	=21	=21	=21
*^	*	*	*	*	*	*	*	*	*	*	*	*	*	*	*	*	*	*	*	*
!	!	!	!	!	!	!	!	!	!	!	!	!	!	!	!	!LO:TX:a:t=2	!LO:TX:a:t=2	!	!	!	!
8G\L	4G\yy	.	12ee 12cc/	ma-	.	16a/LL	.	(16cc\LL	.	8G\	ma-	8g\	ma-	8b\	ma-	1r	1r	(16aa\LL	.	(16ccc\LL	.
.	.	.	.	.	.	16g/J	.	16b\J)	.	.	.	.	.	.	.	.	.	16gg\J)	.	16bb\J)	.
.	.	.	12b 12g/	.	.	.	.	.	.	.	.	.	.	.	.	.	.	.	.	.	.
8G\J	.	.	.	.	.	8g/J	.	8b\|J	.	8G\	-gnam	8g\	-gnam	8b\	-gnam	.	.	8gg\|J	.	8bb\|J	.
.	.	.	12b 12g/	-gnam	.	.	.	.	.	.	.	.	.	.	.	.	.	.	.	.	.
8A/L	8G\L	.	16cc#\LL	glo-	.	8r	.	8r	.	8A\	glo-	8a\	glo-	16cc#X\LL	glo-	.	.	8r	.	8r	.
.	.	.	16ee\JJ	.	.	.	.	.	.	.	.	.	.	16ee\JJ	.	.	.	.	.	.	.
8A/J	8G\J	.	16gg\	-ri-	.	8e/	.	8ee\	.	16A\	-ri-	16a\	-ri-	16gg\	-ri-	.	.	8gg\	.	8eee\	.
.	.	.	16cc#\	-am	.	.	.	.	.	16A\	-am	16a\	-am	16ee\	-am	.	.	.	.	.	.
*v	*v	*	*	*	*	*	*	*	*	*	*	*	*	*	*	*	*	*	*	*	*
=22	=22	=22	=22	=22	=22	=22	=22	=22	=22	=22	=22	=22	=22	=22	=22	=22	=22	=22	=22	=22
.	.	8qqee/	.	.	.	.	8qqee/	.	.	.	.	.	.	.	.	.	.	.	.	.
8AL 8F#\	.	8dd\	tu-	.	8f#/L	.	8dd\L	.	8A\	tu-	8g\	tu-	8dd\	tu-	.	.	(16gg\LL	.	16eee\LL	.
.	.	.	.	.	.	.	.	.	.	.	.	.	.	.	.	.	16ff#\J)	.	16ddd\J	.
8AJ 8F#\	.	8dd\	-am	.	8f#/J	.	8dd\J	.	8A\	-am	8g\	-a,	8dd\	-am	.	.	8ff#\|J	.	8ddd\J	.
8AL 8C#\	.	8ee\	.	.	16a\LL	.	8ee\|L	.	4C#X\	glo-	8a\	glo-	8ff#\|L	glo-	.	.	4gg\	.	4eee\	.
.	.	.	.	.	16cc#X\J	.	.	.	.	.	.	.	.	.	.	.	.	.	.	.
8AJ 8C#\	.	16aa\LL	glo-	.	8ee\J	.	(16aa\L	.	.	.	16a\	-ri-	(16aa\L	.	.	.	.	.	.	.
.	.	16gg\JJ	.	.	.	.	16gg\JJ)	.	.	.	16a\	-am	16gg\JJ)	.	.	.	.	.	.	.
!	!	!	!	!	!	!	!	!	!LO:LB:g=original	!	!LO:LB:g=original	!	!	!	!	!	!	!	!	!
=23	=23	=23	=23	=23	=23	=23	=23	=23	=23	=23	=23	=23	=23	=23	=23	=23	=23	=23	=23	=23
8D/L	.	16ff#\LL	-ri-	.	8dd\L	.	(16ff#\LL	.	8D\	-ri-	(16dd\LL	glo-	(16ff#\LL	-ri-	4d/	(8a\L	8ff#\	.	8ddd\	.
.	.	16aa\JJ	.	.	.	.	16aa\)	.	.	.	16ff#\JJ)	.	16aa\)	.	.	.	.	.	.	.
8G/J	.	16ggLL 16ee\	-am	.	16b\L	.	(16gg\	.	8G\	-am	16ee\|	-ri-	(16gg\	-am	.	8b\J)	4ff#\	.	4ddd\	.
.	.	16eeJJ 16cc\	.	.	16g\JJ	.	16ee\JJ)	.	.	.	16g\|	-am	16ee\JJ)	.	.	.	.	.	.	.
!LO:TX:t=P:problem:mixed beam	!	!	!	!	!	!	!	!	!LO:TX:t=P:problem:mixed beam	!	!	!	!	!	!	!	!	!	!	!
8A\L	.	8ddL 8f#/	tu-	.	8f#/L	.	8dd\L	.	8A\L	tu-	8f#/	tu-	(8dd\L	tu-	8a\L	8a\|L	.	.	.	.
!LO:TX:b:t=vi&colon;	!	!	!	!	!	!	!	!	!	!	!	!	!	!	!	!	!	!	!	!
8AA/J	.	8cc#J 8e/	-am	.	8e/J	.	8cc#X\J	.	8AA/J	.	8e/	.	8cc#X\J)	.	8a\J	8a\|J	8ee\	.	8ccc#X\	.
!LO:LB:g=original	!	!LO:LB:g=original	!	!	!	!	!LO:LB:g=original	!	!	!	!	!	!	!	!	!	!	!	!	!
=24	=24	=24	=24	=24	=24	=24	=24	=24	=24	=24	=24	=24	=24	=24	=24	=24	=24	=24	=24	=24
!	!	!LO:TX:a:t=Solo	!	!	!	!	!	!	!	!	!	!	!	!	!	!	!	!	!	!
!	!	!LO:TX:a:t=de.	!	!	!	!	!	!	!	!	!	!	!	!	!	!	!	!	!	!
16F#LL 16D\	.	16ddKL 16f#\	.	.	8f#/L	.	8dd\L	.	4D\	-am	4f#/	-am	4dd\	-am	4d/	4a\	4ff#\	.	4ddd\	.
16c\	.	8a\	.	.	.	.	.	.	.	.	.	.	.	.	.	.	.	.	.	.
16F# 16D\	.	.	.	.	8d/J	.	8f#/J	.	.	.	.	.	.	.	.	.	.	.	.	.
16c\JJ	.	8dd\	.	.	.	.	.	.	.	.	.	.	.	.	.	.	.	.	.	.
*rep	*	*	*	*	*	*	*	*	*	*	*	*	*	*	*	*	*	*	*	*
16F#LL 16D\	.	.	.	.	4d/	.	4f#/	.	4r	.	4r	.	4r	.	4r	4r	4r	.	4r	.
16c\	.	8ff#\	.	.	.	.	.	.	.	.	.	.	.	.	.	.	.	.	.	.
16F# 16D\	.	.	.	.	.	.	.	.	.	.	.	.	.	.	.	.	.	.	.	.
16c\JJ	.	16aa\Jk	.	.	.	.	.	.	.	.	.	.	.	.	.	.	.	.	.	.
*Xrep	*	*	*	*	*	*	*	*	*	*	*	*	*	*	*	*	*	*	*	*
!	!	!	!	!	!LO:LB:g=original	!	!	!	!	!	!	!	!LO:PB:g=original	!	!	!	!	!	!	!
=25	=25	=25	=25	=25	=25	=25	=25	=25	=25	=25	=25	=25	=25	=25	=25	=25	=25	=25	=25	=25
!	!	!	!	!	!	!	!	!	!LO:TX:a:t=42	!	!LO:TX:a:t=26	!	!LO:TX:a:t=26	!	!LO:TX:a:t=7	!LO:TX:a:t=7	!	!LO:DY:a:rj:t=Pia	!	!LO:DY:a:rj:t=Pia
16GLL 16E\	.	32gg\LLL	.	.	2c#X/	.	2g/	.	2r	.	2r	.	0r	.	0r	0r	2gg\	p	2ccc#X\	p
.	.	32aa\	.	.	.	.	.	.	.	.	.	.	.	.	.	.	.	.	.	.
16A\	.	32gg\	.	.	.	.	.	.	.	.	.	.	.	.	.	.	.	.	.	.
.	.	32ee\JJJ	.	.	.	.	.	.	.	.	.	.	.	.	.	.	.	.	.	.
16G 16E\	.	32ee\LLL	.	.	.	.	.	.	.	.	.	.	.	.	.	.	.	.	.	.
.	.	32ff#\	.	.	.	.	.	.	.	.	.	.	.	.	.	.	.	.	.	.
16A\JJ	.	32ee\	.	.	.	.	.	.	.	.	.	.	.	.	.	.	.	.	.	.
.	.	32cc#\JJJ	.	.	.	.	.	.	.	.	.	.	.	.	.	.	.	.	.	.
*rep	*	*	*	*	*	*	*	*	*	*	*	*	*	*	*	*	*	*	*	*
!	!	!	!	!	!	!	!	!	!	!	!	!	!	!	!	!	!LO:TX:a:i:t=Solo	!	!	!
16GLL 16E\	.	32cc#/LLL	.	.	.	.	.	.	.	.	.	.	.	.	.	.	.	.	.	.
.	.	32dd/	.	.	.	.	.	.	.	.	.	.	.	.	.	.	.	.	.	.
16A\	.	32cc#/	.	.	.	.	.	.	.	.	.	.	.	.	.	.	.	.	.	.
.	.	32a/JJJ	.	.	.	.	.	.	.	.	.	.	.	.	.	.	.	.	.	.
16G 16E\	.	32g/LLL	.	.	.	.	.	.	.	.	.	.	.	.	.	.	.	.	.	.
.	.	32a/	.	.	.	.	.	.	.	.	.	.	.	.	.	.	.	.	.	.
16A\JJ	.	32g/	.	.	.	.	.	.	.	.	.	.	.	.	.	.	.	.	.	.
.	.	32e/JJJ	.	.	.	.	.	.	.	.	.	.	.	.	.	.	.	.	.	.
*Xrep	*	*	*	*	*	*	*	*	*	*	*	*	*	*	*	*	*	*	*	*
=26	=26	=26	=26	=26	=26	=26	=26	=26	=26	=26	=26	=26	=26	=26	=26	=26	=26	=26	=26	=26
!	!	!	!	!	!	!LO:DY:b:rj:t=po.	!	!	!	!	!	!	!	!	!	!	!	!	!	!
16F#LL 16D\	.	16f#\KL	.	.	2d/	p	2f#/	.	2r	.	2r	.	.	.	.	.	2ff#\	.	2ddd\	.
16A\	.	8b\	.	.	.	.	.	.	.	.	.	.	.	.	.	.	.	.	.	.
16F# 16D\	.	.	.	.	.	.	.	.	.	.	.	.	.	.	.	.	.	.	.	.
16A\JJ	.	8dd\	.	.	.	.	.	.	.	.	.	.	.	.	.	.	.	.	.	.
*rep	*	*	*	*	*	*	*	*	*	*	*	*	*	*	*	*	*	*	*	*
16F#LL 16D\	.	.	.	.	.	.	.	.	.	.	.	.	.	.	.	.	.	.	.	.
16A\	.	8ff#\	.	.	.	.	.	.	.	.	.	.	.	.	.	.	.	.	.	.
16F# 16D\	.	.	.	.	.	.	.	.	.	.	.	.	.	.	.	.	.	.	.	.
16A\JJ	.	16aa\Jk	.	.	.	.	.	.	.	.	.	.	.	.	.	.	.	.	.	.
*Xrep	*	*	*	*	*	*	*	*	*	*	*	*	*	*	*	*	*	*	*	*
=27	=27	=27	=27	=27	=27	=27	=27	=27	=27	=27	=27	=27	=27	=27	=27	=27	=27	=27	=27	=27
16GLL 16E\	.	32gg\LLL	.	.	2c#X/	.	2g/	.	2r	.	2r	.	.	.	.	.	2gg\	.	2ccc#X\	.
.	.	32aa\	.	.	.	.	.	.	.	.	.	.	.	.	.	.	.	.	.	.
16A\	.	32gg\	.	.	.	.	.	.	.	.	.	.	.	.	.	.	.	.	.	.
.	.	32ee\JJJ	.	.	.	.	.	.	.	.	.	.	.	.	.	.	.	.	.	.
16G 16E\	.	32ee\LLL	.	.	.	.	.	.	.	.	.	.	.	.	.	.	.	.	.	.
.	.	32ff#\	.	.	.	.	.	.	.	.	.	.	.	.	.	.	.	.	.	.
16A\JJ	.	32ee\	.	.	.	.	.	.	.	.	.	.	.	.	.	.	.	.	.	.
.	.	32cc\JJJ	.	.	.	.	.	.	.	.	.	.	.	.	.	.	.	.	.	.
*rep	*	*	*	*	*	*	*	*	*	*	*	*	*	*	*	*	*	*	*	*
16GLL 16E\	.	32cc\LLL	.	.	.	.	.	.	.	.	.	.	.	.	.	.	.	.	.	.
.	.	32dd\	.	.	.	.	.	.	.	.	.	.	.	.	.	.	.	.	.	.
16A\	.	32cc\	.	.	.	.	.	.	.	.	.	.	.	.	.	.	.	.	.	.
.	.	32a\JJJ	.	.	.	.	.	.	.	.	.	.	.	.	.	.	.	.	.	.
16G 16E\	.	32g/LLL	.	.	.	.	.	.	.	.	.	.	.	.	.	.	.	.	.	.
.	.	32a/	.	.	.	.	.	.	.	.	.	.	.	.	.	.	.	.	.	.
16A\JJ	.	32g/	.	.	.	.	.	.	.	.	.	.	.	.	.	.	.	.	.	.
.	.	32e/JJJ	.	.	.	.	.	.	.	.	.	.	.	.	.	.	.	.	.	.
*Xrep	*	*	*	*	*	*	*	*	*	*	*	*	*	*	*	*	*	*	*	*
!LO:LB:g=original	!	!LO:LB:g=original	!	!	!	!	!	!	!	!	!	!	!	!	!	!	!	!	!	!
=28	=28	=28	=28	=28	=28	=28	=28	=28	=28	=28	=28	=28	=28	=28	=28	=28	=28	=28	=28	=28
!	!	!	!	!LO:DY:a:t=forte	!	!LO:DY:b::rj:t=forte	!LO:TX:a:i:rj:t=Tutti.	!LO:DY:b:rj:t=forte	!	!	!	!	!	!	!	!	!	!	!	!
16D\LL	.	16f#/LL	.	f	16d/LL	f	(16f#/LL	f	2r	.	2r	.	.	.	.	.	8ff#\	.	8ddd\	.
!	!	!	!	!	!	!	!	!	!	!	!	!	!	!	!	!	!	!LO:DY:a:t=forte	!	!
16E\	.	16g/	.	.	16e/	.	16g/)	.	.	.	.	.	.	.	.	.	.	f	.	.
!	!	!	!	!	!	!	!	!	!	!	!	!	!	!	!	!	!	!	!	!LO:DY:a:t=forte
16F#\	.	16a/	.	.	16f#/	.	16a/|	.	.	.	.	.	.	.	.	.	8r	.	8r	f
16D\JJ	.	16f#/JJ	.	.	16d/JJ	.	16f#/|JJ	.	.	.	.	.	.	.	.	.	.	.	.	.
16G\LL	.	16b/LL	.	.	16g/LL	.	(16b\LL	.	.	.	.	.	.	.	.	.	8gg\	.	8bb\	.
16A\	.	16cc#/	.	.	16a/	.	16cc#X\)	.	.	.	.	.	.	.	.	.	.	.	.	.
16B\	.	16dd/	.	.	16b/	.	16dd\|	.	.	.	.	.	.	.	.	.	8r	.	8r	.
16G\JJ	.	16b/JJ	.	.	16g/JJ	.	16b\|JJ	.	.	.	.	.	.	.	.	.	.	.	.	.
=29	=29	=29	=29	=29	=29	=29	=29	=29	=29	=29	=29	=29	=29	=29	=29	=29	=29	=29	=29	=29
16F#/LL	.	16a/LL	.	.	16f#/LL	.	(16a/LL	.	2r	.	2r	.	0r	.	1r	1r	8ff#\	.	8aa\	.
16E/	.	16g/	.	.	16e/	.	16g/)	.	.	.	.	.	.	.	.	.	.	.	.	.
16D/	.	16f#/	.	.	16d/	.	16f#/|	.	.	.	.	.	.	.	.	.	8r	.	8r	.
16F#/JJ	.	16a/JJ	.	.	16f#/JJ	.	16a/|JJ	.	.	.	.	.	.	.	.	.	.	.	.	.
16G/LL	.	16g/LL	.	.	16e/LL	.	(16g/LL	.	.	.	.	.	.	.	.	.	8ee\	.	8gg\	.
16D/	.	16f#/	.	.	16d/	.	16f#/)	.	.	.	.	.	.	.	.	.	.	.	.	.
16E/	.	16g/	.	.	16e/	.	16g/|	.	.	.	.	.	.	.	.	.	8r	.	8r	.
16AA/JJ	.	16e/JJ	.	.	16c#X/JJ	.	16e/|JJ	.	.	.	.	.	.	.	.	.	.	.	.	.
=30	=30	=30	=30	=30	=30	=30	=30	=30	=30	=30	=30	=30	=30	=30	=30	=30	=30	=30	=30	=30
16D/LL	.	16f#/LL	.	.	16d/LL	.	16f#/LL	.	2r	.	2r	.	.	.	.	.	8dd\	.	8ff#\	.
16E/	.	16g/	.	.	16e/	.	16g/	.	.	.	.	.	.	.	.	.	.	.	.	.
16F#/	.	16a/	.	.	16f#/	.	16a/	.	.	.	.	.	.	.	.	.	8r	.	8r	.
16D/JJ	.	16f#/JJ	.	.	16d/JJ	.	16f#/JJ	.	.	.	.	.	.	.	.	.	.	.	.	.
16G\LL	.	16b/LL	.	.	16g/LL	.	16b\LL	.	.	.	.	.	.	.	.	.	8gg\	.	8bb\	.
16A\	.	16cc#/	.	.	16a/	.	16cc#X\	.	.	.	.	.	.	.	.	.	.	.	.	.
16B\	.	16dd/	.	.	16b/	.	16dd\	.	.	.	.	.	.	.	.	.	8r	.	8r	.
!	!	!LO:TX:b:t=30	!	!	!	!	!LO:TX:a:t=30	!	!	!	!	!	!	!	!	!	!LO:TX:a:t=30	!	!LO:TX:b:t=30	!
16G\JJ	.	16b/JJ	.	.	16g/JJ	.	16b\JJ	.	.	.	.	.	.	.	.	.	.	.	.	.
!	!	!	!	!	!	!	!	!	!	!	!	!	!	!	!	!	!	!	!LO:LB:g=original	!
=31	=31	=31	=31	=31	=31	=31	=31	=31	=31	=31	=31	=31	=31	=31	=31	=31	=31	=31	=31	=31
16F#/LL	.	16a/LL	.	.	16f#/LL	.	16a/LL	.	2r	.	2r	.	.	.	2r	2r	8ff#\	.	8aa\	.
16E/	.	16g/	.	.	16e/	.	16g/	.	.	.	.	.	.	.	.	.	.	.	.	.
16D/	.	16f#/	.	.	16d/	.	16f#/	.	.	.	.	.	.	.	.	.	8r	.	8r	.
16F#/JJ	.	16a/JJ	.	.	16f#/JJ	.	16a/JJ	.	.	.	.	.	.	.	.	.	.	.	.	.
16E/LL	.	16g/LL	.	.	16e/LL	.	16g/LL	.	.	.	.	.	.	.	.	.	8ee\	.	8gg\	.
16D/	.	16f#/	.	.	16d/	.	16f#/	.	.	.	.	.	.	.	.	.	.	.	.	.
16E/	.	16g/	.	.	16e/	.	16g/	.	.	.	.	.	.	.	.	.	8r	.	8r	.
16AA/JJ	.	16e/JJ	.	.	16c#X/JJ	.	16e/JJ	.	.	.	.	.	.	.	.	.	.	.	.	.
!	!	!	!	!	!	!	!	!	!	!	!	!	!	!	!	!	!LO:LB:g=original	!	!	!
=32	=32	=32	=32	=32	=32	=32	=32	=32	=32	=32	=32	=32	=32	=32	=32	=32	=32	=32	=32	=32
!	!	!	!	!LO:DY:a:t=Piano	!	!	!	!	!	!	!	!	!	!	!	!	!	!LO:DY:a:t=Piano	!	!
16D/LL	.	16f#/LL	.	p	16d/LL	.	16f#/LL	.	2r	.	2r	.	.	.	4r	4r	2ff#\	p	2cccn\	.
16E/	.	16g/	.	.	16e/	.	16g/	.	.	.	.	.	.	.	.	.	.	.	.	.
16F#/	.	16a/	.	.	16f#/	.	16a/	.	.	.	.	.	.	.	.	.	.	.	.	.
16G/JJ	.	16b/JJ	.	.	16g/JJ	.	16b/JJ	.	.	.	.	.	.	.	.	.	.	.	.	.
!	!	!LO:TX:a:i:t=Solo	!	!	!	!	!	!	!	!	!	!	!	!	!	!	!	!	!	!
16A\LL	.	16ccX/LL	.	.	16a/LL	.	16ccn\LL	.	.	.	.	.	.	.	4d/	4a\	.	.	.	.
16G\	.	16b/	.	.	16g/	.	16b\	.	.	.	.	.	.	.	.	.	.	.	.	.
16A\	.	16cc/	.	.	16a/	.	16cc\	.	.	.	.	.	.	.	.	.	.	.	.	.
16F#\JJ	.	16a/JJ	.	.	16f#/JJ	.	16a\JJ	.	.	.	.	.	.	.	.	.	.	.	.	.
!LO:LB:g=original	!	!LO:LB:g=original	!	!	!	!	!	!	!	!	!	!	!	!	!	!	!	!	!	!
=33	=33	=33	=33	=33	=33	=33	=33	=33	=33	=33	=33	=33	=33	=33	=33	=33	=33	=33	=33	=33
16G\LL	.	16b/LL	.	.	16g/LL	.	16b\LL	.	2r	.	2r	.	0r	.	8g\L	8b\L	4gg\	.	4bb\	.
16B\	.	16g/	.	.	16B/	.	16g\	.	.	.	.	.	.	.	.	.	.	.	.	.
16cnX\	.	16a/	.	.	16c/	.	16a\	.	.	.	.	.	.	.	8d\J	8a\J	.	.	.	.
16A\JJ	.	16f#/JJ	.	.	16A/JJ	.	16f#\JJ	.	.	.	.	.	.	.	.	.	.	.	.	.
16B\LL	.	16g/LL	.	.	16B/LL	.	16g/LL	.	.	.	.	.	.	.	16.B/LL	16.g\LL	4r	.	4r	.
16d\J	.	16b/J	.	.	16c/J	.	16b/J	.	.	.	.	.	.	.	.	.	.	.	.	.
.	.	.	.	.	.	.	.	.	.	.	.	.	.	.	32B/JJK	32g\JJK	.	.	.	.
8B\J	.	8g/J	.	.	8B/J	.	8g/J	.	.	.	.	.	.	.	8B/	8g\	.	.	.	.
!	!	!	!	!	!	!	!LO:LB:g=original	!	!	!	!	!	!	!	!	!	!	!	!	!
=34	=34	=34	=34	=34	=34	=34	=34	=34	=34	=34	=34	=34	=34	=34	=34	=34	=34	=34	=34	=34
16E\LL	.	16g#X/LL	.	.	16e/LL	.	16g#X\LL	.	2r	.	2r	.	.	.	4r	4r	2gg#X\	.	2ddd\	.
16F#\	.	16a/	.	.	16f#/	.	16a\	.	.	.	.	.	.	.	.	.	.	.	.	.
16G#X\	.	16b/	.	.	16g#X/	.	16b\	.	.	.	.	.	.	.	.	.	.	.	.	.
16A\JJ	.	16cc#/JJ	.	.	16a/JJ	.	16cc#X\JJ	.	.	.	.	.	.	.	.	.	.	.	.	.
16B\LL	.	16dd/LL	.	.	16b/LL	.	16dd\LL	.	.	.	.	.	.	.	4d/	4b\	.	.	.	.
16A\	.	16cc#/	.	.	16a/	.	16cc#\	.	.	.	.	.	.	.	.	.	.	.	.	.
16B\	.	16dd/	.	.	16b/	.	16dd\	.	.	.	.	.	.	.	.	.	.	.	.	.
16G#\JJ	.	16b/JJ	.	.	16g#/JJ	.	16b\JJ	.	.	.	.	.	.	.	.	.	.	.	.	.
!	!	!	!	!	!LO:LB:g=original	!	!	!	!	!	!	!	!	!	!	!LO:LB:g=original	!	!	!	!
=35	=35	=35	=35	=35	=35	=35	=35	=35	=35	=35	=35	=35	=35	=35	=35	=35	=35	=35	=35	=35
16A\LL	.	16cc#/LL	.	.	16a/LL	.	16cc#X\LL	.	2r	.	2r	.	.	.	4a\	8a\L	4aa\	.	4ccc#X\	.
16c#\	.	16a/	.	.	16c#X/	.	16a\	.	.	.	.	.	.	.	.	.	.	.	.	.
16d\	.	16b/	.	.	16d/	.	16b\	.	.	.	.	.	.	.	.	8b\J	.	.	.	.
16B\JJ	.	16g#X/JJ	.	.	16B/JJ	.	16g#X\JJ	.	.	.	.	.	.	.	.	.	.	.	.	.
16c#\LL	.	16a/LL	.	.	16c#/LL	.	16a\LL	.	.	.	.	.	.	.	16.a\LL	16.a\LL	4r	.	4r	.
16e\J	.	16cc#/J	.	.	16e/J	.	16cc#\J	.	.	.	.	.	.	.	.	.	.	.	.	.
.	.	.	.	.	.	.	.	.	.	.	.	.	.	.	32a\JK	32a\JK	.	.	.	.
!	!	!	!	!	!LO:N:vis=16	!	!	!	!	!	!	!	!	!	!	!	!	!	!	!
8c#\J	.	8a/J	.	.	8c#/J	.	8a\J	.	.	.	.	.	.	.	8a\J	8a\J	.	.	.	.
=36	=36	=36	=36	=36	=36	=36	=36	=36	=36	=36	=36	=36	=36	=36	=36	=36	=36	=36	=36	=36
!	!	!	!	!	!	!	!	!	!	!	!	!	!	!	!LO:TX:a:t=7	!LO:TX:a:t=7	!	!	!	!
16A\LL	.	16cc#\LL	.	.	16A/LL	.	16c#X/LL	.	2r	.	2r	.	.	.	0r	0r	4cc\	.	4eee\	.
16B\	.	16dd\	.	.	16B/	.	16d/	.	.	.	.	.	.	.	.	.	.	.	.	.
16c#\	.	16ee\	.	.	16c#X/	.	16e/	.	.	.	.	.	.	.	.	.	.	.	.	.
16d\JJ	.	16ff#\JJ	.	.	16d/JJ	.	16f#/JJ	.	.	.	.	.	.	.	.	.	.	.	.	.
16e\LL	.	16gg\LL	.	.	16e/LL	.	16g/LL	.	.	.	.	.	.	.	.	.	4ee\	.	4gg\	.
16d\	.	16ff#\	.	.	16d/	.	16f#/	.	.	.	.	.	.	.	.	.	.	.	.	.
16e\	.	16gg\	.	.	16e/	.	16g/	.	.	.	.	.	.	.	.	.	.	.	.	.
16c#\JJ	.	16ee\JJ	.	.	16c#/JJ	.	16e/JJ	.	.	.	.	.	.	.	.	.	.	.	.	.
=37	=37	=37	=37	=37	=37	=37	=37	=37	=37	=37	=37	=37	=37	=37	=37	=37	=37	=37	=37	=37
*clefG2	*	*	*	*	*	*	*	*	*	*	*	*	*	*	*	*	*	*	*	*
!	!	!	!	!	!	!LO:DY:b:rj:t=po.	!	!LO:DY:b:rj:t=p.	!	!	!	!	!	!	!	!	!	!	!	!
16d/LL	.	32ff#\LLL	.	.	16d/LL	p	16f#/LL	p	2r	.	2r	.	0r	.	.	.	4dd\	.	(8ff#\L	.
.	.	32aa\	.	.	.	.	.	.	.	.	.	.	.	.	.	.	.	.	.	.
16a/	.	32gg#X\	.	.	16f#/	.	16a/	.	.	.	.	.	.	.	.	.	.	.	.	.
.	.	32aa\JJJ	.	.	.	.	.	.	.	.	.	.	.	.	.	.	.	.	.	.
16f#/	.	32bb\LLL	.	.	16d/	.	16f#/	.	.	.	.	.	.	.	.	.	.	.	8aa\J)	.
.	.	32aa\	.	.	.	.	.	.	.	.	.	.	.	.	.	.	.	.	.	.
16a/JJ	.	32gg#\	.	.	16f#/JJ	.	16a/JJ	.	.	.	.	.	.	.	.	.	.	.	.	.
.	.	32aa\JJJ	.	.	.	.	.	.	.	.	.	.	.	.	.	.	.	.	.	.
!LO:LB:g=original	!	!LO:LB:g=original	!	!	!	!	!	!	!	!	!	!	!	!	!	!	!	!	!	!
16c#/LL	.	16ee\LL	.	.	16A/LL	.	16e/LL	.	.	.	.	.	.	.	.	.	4cc\	.	4aa\	.
16a/	.	16gg\JJ	.	.	16e/	.	16a/	.	.	.	.	.	.	.	.	.	.	.	.	.
.	.	8qqaa/	.	.	.	.	.	.	.	.	.	.	.	.	.	.	.	.	.	.
16e/	.	16gg\LL	.	.	16A/	.	16e/	.	.	.	.	.	.	.	.	.	.	.	.	.
16a/JJ	.	32ff#\L	.	.	16e/JJ	.	16a/JJ	.	.	.	.	.	.	.	.	.	.	.	.	.
.	.	32gg\JJJ	.	.	.	.	.	.	.	.	.	.	.	.	.	.	.	.	.	.
=38	=38	=38	=38	=38	=38	=38	=38	=38	=38	=38	=38	=38	=38	=38	=38	=38	=38	=38	=38	=38
*	*	*	*	*	*rep	*	*	*	*	*	*	*	*	*	*	*	*	*	*	*
16d/LL	.	32ff#\LLL	.	.	16A/LL	.	16f#/LL	.	2r	.	2r	.	.	.	.	.	4dd\	.	2aa\	.
.	.	32aa\	.	.	.	.	.	.	.	.	.	.	.	.	.	.	.	.	.	.
16a/	.	32gg#X\	.	.	16e/	.	16a/	.	.	.	.	.	.	.	.	.	.	.	.	.
.	.	32aa\JJJ	.	.	.	.	.	.	.	.	.	.	.	.	.	.	.	.	.	.
16f#/	.	32bb\LLL	.	.	16A/	.	16f#/	.	.	.	.	.	.	.	.	.	.	.	.	.
.	.	32aa\	.	.	.	.	.	.	.	.	.	.	.	.	.	.	.	.	.	.
16a/JJ	.	32gg#\	.	.	16e/JJ	.	16a/JJ	.	.	.	.	.	.	.	.	.	.	.	.	.
.	.	32aa\JJJ	.	.	.	.	.	.	.	.	.	.	.	.	.	.	.	.	.	.
*	*	*	*	*	*Xrep	*	*	*	*	*	*	*	*	*	*	*	*	*	*	*
*	*	*	*	*	*rep	*	*	*	*	*	*	*	*	*	*	*	*	*	*	*
16c#/LL	.	16ee\LL	.	.	16A/LL	.	16e/LL	.	.	.	.	.	.	.	.	.	4cc\	.	.	.
16a/	.	16gg\JJ	.	.	16e/	.	16a/	.	.	.	.	.	.	.	.	.	.	.	.	.
.	.	8qqaa/	.	.	.	.	.	.	.	.	.	.	.	.	.	.	.	.	.	.
16e/	.	16gg\LL	.	.	16A/	.	16e/	.	.	.	.	.	.	.	.	.	.	.	.	.
16a/JJ	.	32ff#\L	.	.	16e/JJ	.	16a/JJ	.	.	.	.	.	.	.	.	.	.	.	.	.
.	.	32gg\JJJ	.	.	.	.	.	.	.	.	.	.	.	.	.	.	.	.	.	.
*	*	*	*	*	*Xrep	*	*	*	*	*	*	*	*	*	*	*	*	*	*	*
=39	=39	=39	=39	=39	=39	=39	=39	=39	=39	=39	=39	=39	=39	=39	=39	=39	=39	=39	=39	=39
16d/LL	.	32ff#\LLL	.	.	16d/	.	16f#/	.	2r	.	2r	.	.	.	.	.	8dd\	.	8aa\	.
.	.	32ee\	.	.	.	.	.	.	.	.	.	.	.	.	.	.	.	.	.	.
16a/	.	32ff#\	.	.	16r	.	16r	.	.	.	.	.	.	.	.	.	.	.	.	.
.	.	32dd\JJJ	.	.	.	.	.	.	.	.	.	.	.	.	.	.	.	.	.	.
16e/	.	32gg\LLL	.	.	16e/	.	16g/	.	.	.	.	.	.	.	.	.	8r	.	8r	.
.	.	32ff#\	.	.	.	.	.	.	.	.	.	.	.	.	.	.	.	.	.	.
16a/JJ	.	32gg\	.	.	16r	.	16r	.	.	.	.	.	.	.	.	.	.	.	.	.
.	.	32ee\JJJ	.	.	.	.	.	.	.	.	.	.	.	.	.	.	.	.	.	.
16f#/LL	.	32aa\LLL	.	.	16f#/	.	16a/	.	.	.	.	.	.	.	.	.	4r	.	4r	.
.	.	32gg\	.	.	.	.	.	.	.	.	.	.	.	.	.	.	.	.	.	.
16a/JJ	.	32aa\	.	.	16r	.	16r	.	.	.	.	.	.	.	.	.	.	.	.	.
.	.	32ff#\JJJ	.	.	.	.	.	.	.	.	.	.	.	.	.	.	.	.	.	.
8g/	.	32bb\LLL	.	.	16g/	.	16b/	.	.	.	.	.	.	.	.	.	.	.	.	.
.	.	32ccc#\	.	.	.	.	.	.	.	.	.	.	.	.	.	.	.	.	.	.
.	.	32ddd\	.	.	16r	.	16r	.	.	.	.	.	.	.	.	.	.	.	.	.
.	.	32bb\JJJ	.	.	.	.	.	.	.	.	.	.	.	.	.	.	.	.	.	.
=40	=40	=40	=40	=40	=40	=40	=40	=40	=40	=40	=40	=40	=40	=40	=40	=40	=40	=40	=40	=40
!	!	!	!	!	!	!	!	!	!	!	!	!	!	!	!	!	!LO:TX:a:t=3	!	!LO:TX:a:t=3	!
16f#/LL	.	32aa\LLL	.	.	4d/	.	4e/	.	2r	.	2r	.	.	.	1r	1r	1r	.	1r	.
.	.	32bb\	.	.	.	.	.	.	.	.	.	.	.	.	.	.	.	.	.	.
16a/	.	32aa\	.	.	.	.	.	.	.	.	.	.	.	.	.	.	.	.	.	.
.	.	32gg#X\JJJ	.	.	.	.	.	.	.	.	.	.	.	.	.	.	.	.	.	.
16d/	.	16aa\LL	.	.	.	.	.	.	.	.	.	.	.	.	.	.	.	.	.	.
16a/JJ	.	16ff#\JJ	.	.	.	.	.	.	.	.	.	.	.	.	.	.	.	.	.	.
16e/LL	.	32gg\LLL	.	.	4e/	.	4g/	.	.	.	.	.	.	.	.	.	.	.	.	.
.	.	32aa\	.	.	.	.	.	.	.	.	.	.	.	.	.	.	.	.	.	.
16a/	.	32gg\	.	.	.	.	.	.	.	.	.	.	.	.	.	.	.	.	.	.
.	.	32ff#\JJJ	.	.	.	.	.	.	.	.	.	.	.	.	.	.	.	.	.	.
16c#/	.	16gg\LL	.	.	.	.	.	.	.	.	.	.	.	.	.	.	.	.	.	.
16a/JJ	.	16ee\JJ	.	.	.	.	.	.	.	.	.	.	.	.	.	.	.	.	.	.
=41	=41	=41	=41	=41	=41	=41	=41	=41	=41	=41	=41	=41	=41	=41	=41	=41	=41	=41	=41	=41
!LO:TX:t=P:problem:takty 41-42 zapisane repetycją	!	!LO:TX:t=P:problem:takty 41-42 zapisane repetycją	!	!	!	!	!	!	!	!	!	!	!	!	!	!	!	!	!	!
16d/LLyy	.	32ff#\LLLyy	.	.	16d/	.	16f#/	.	2r	.	2r	.	0r	.	.	.	.	.	.	.
.	.	32ee\yy	.	.	.	.	.	.	.	.	.	.	.	.	.	.	.	.	.	.
16a/yy	.	32ff#\yy	.	.	16r	.	16r	.	.	.	.	.	.	.	.	.	.	.	.	.
.	.	32dd\JJJyy	.	.	.	.	.	.	.	.	.	.	.	.	.	.	.	.	.	.
16e/yy	.	32gg\LLLyy	.	.	16e/	.	16g/	.	.	.	.	.	.	.	.	.	.	.	.	.
.	.	32ff#\yy	.	.	.	.	.	.	.	.	.	.	.	.	.	.	.	.	.	.
16a/JJyy	.	32gg\yy	.	.	16r	.	16r	.	.	.	.	.	.	.	.	.	.	.	.	.
.	.	32ee\JJJyy	.	.	.	.	.	.	.	.	.	.	.	.	.	.	.	.	.	.
16f#/LLyy	.	32aa\LLLyy	.	.	16f#/	.	16a/	.	.	.	.	.	.	.	.	.	.	.	.	.
.	.	32gg\yy	.	.	.	.	.	.	.	.	.	.	.	.	.	.	.	.	.	.
16a/JJyy	.	32aa\yy	.	.	16r	.	16r	.	.	.	.	.	.	.	.	.	.	.	.	.
.	.	32ff#\JJJyy	.	.	.	.	.	.	.	.	.	.	.	.	.	.	.	.	.	.
8g/yy	.	32bb\LLLyy	.	.	16g/	.	16b/	.	.	.	.	.	.	.	.	.	.	.	.	.
.	.	32ccc#\yy	.	.	.	.	.	.	.	.	.	.	.	.	.	.	.	.	.	.
.	.	32ddd\yy	.	.	16r	.	16r	.	.	.	.	.	.	.	.	.	.	.	.	.
.	.	32bb\JJJyy	.	.	.	.	.	.	.	.	.	.	.	.	.	.	.	.	.	.
!	!	!	!	!	!	!	!LO:LB:g=original	!	!	!	!	!	!	!	!	!	!	!	!	!
=42	=42	=42	=42	=42	=42	=42	=42	=42	=42	=42	=42	=42	=42	=42	=42	=42	=42	=42	=42	=42
16f#/LLyy	.	32aa\LLLyy	.	.	4d/	.	4e/	.	2r	.	2r	.	.	.	2r	2r	2r	.	2r	.
.	.	32bb\yy	.	.	.	.	.	.	.	.	.	.	.	.	.	.	.	.	.	.
16a/yy	.	32aa\yy	.	.	.	.	.	.	.	.	.	.	.	.	.	.	.	.	.	.
.	.	32gg#X\JJJyy	.	.	.	.	.	.	.	.	.	.	.	.	.	.	.	.	.	.
16d/yy	.	16aa\LLyy	.	.	.	.	.	.	.	.	.	.	.	.	.	.	.	.	.	.
16a/JJyy	.	16ff#\JJyy	.	.	.	.	.	.	.	.	.	.	.	.	.	.	.	.	.	.
16e/LLyy	.	32gg\LLLyy	.	.	4e/	.	4g/	.	.	.	.	.	.	.	.	.	.	.	.	.
.	.	32aa\yy	.	.	.	.	.	.	.	.	.	.	.	.	.	.	.	.	.	.
16a/yy	.	32gg\yy	.	.	.	.	.	.	.	.	.	.	.	.	.	.	.	.	.	.
.	.	32ff#\JJJyy	.	.	.	.	.	.	.	.	.	.	.	.	.	.	.	.	.	.
16c#/yy	.	16gg\LLyy	.	.	.	.	.	.	.	.	.	.	.	.	.	.	.	.	.	.
16a/JJyy	.	16ee\JJyy	.	.	.	.	.	.	.	.	.	.	.	.	.	.	.	.	.	.
!LO:LB:g=original	!	!LO:LB:g=original	!	!	!	!	!	!	!	!	!	!	!	!	!	!	!	!	!	!
=43	=43	=43	=43	=43	=43	=43	=43	=43	=43	=43	=43	=43	=43	=43	=43	=43	=43	=43	=43	=43
*clefF4	*	*	*	*	*	*	*	*	*	*	*	*	*	*	*	*	*	*	*	*
!	!	!	!	!	!	!	!	!	!	!	!	!	!	!	!LO:N:vis=4.	!	!	!	!	!
8d\L	.	32ff#\LLL	.	.	8d/	.	8f#/	.	2r	.	2r	.	.	.	4d/	(8a\L	8ff#\	.	8ddd\	.
.	.	32ddd\	.	.	.	.	.	.	.	.	.	.	.	.	.	.	.	.	.	.
.	.	32ccc#\	.	.	.	.	.	.	.	.	.	.	.	.	.	.	.	.	.	.
.	.	32ddd\JJJ	.	.	.	.	.	.	.	.	.	.	.	.	.	.	.	.	.	.
8g\J	.	32ccc#\LLL	.	.	8r	.	8r	.	.	.	.	.	.	.	.	8b\J)	4ff#\	.	4ddd\	.
.	.	32bb\	.	.	.	.	.	.	.	.	.	.	.	.	.	.	.	.	.	.
.	.	32aa\	.	.	.	.	.	.	.	.	.	.	.	.	.	.	.	.	.	.
.	.	32gg\JJJ	.	.	.	.	.	.	.	.	.	.	.	.	.	.	.	.	.	.
8a\L	.	8ff#\L	.	.	8dd\L	.	8ff#\L	.	.	.	.	.	.	.	8a\L	8a\|L	.	.	.	.
!	!	!	!	!	!	!	!	!	!	!	!	!	!	!	!	!	!LO:TX:t=e	!	!	!
8A\J	.	8ee\J	.	.	8cc#X\J	.	8ee\J	.	.	.	.	.	.	.	8a\J	8a\|J	8ee\	.	8ccc#X\	.
!	!	!	!	!	!LO:LB:g=original	!	!	!	!	!	!	!	!	!	!LO:LB:g=original	!	!	!	!	!
=44	=44	=44	=44	=44	=44	=44	=44	=44	=44	=44	=44	=44	=44	=44	=44	=44	=44	=44	=44	=44
*	*	*^	*	*	*	*	*	*	*	*	*	*	*	*	*	*	*	*	*	*
*clefG2	*	*	*2\right	*	*	*	*	*	*	*	*	*	*	*	*	*	*	*	*	*	*
!	!	!	!	!	!LO:DY:a:t=forte	!	!	!	!LO:DY:b:rj:t=for	!	!	!	!	!	!	!	!	!	!	!	!
16d/LL	.	16ff#LL 16dd\	2dd\	.	f	16dd\LL	.	16dd\LL	f	2r	.	2r	.	.	.	4d/	4a\	16ff#\LL	.	16ddd\|LL	.
16b/	.	16ddd\	.	.	.	16b\	.	16dd\	.	.	.	.	.	.	.	.	.	(16dd\	.	16ddd\|	.
16a/	.	16ccc#\	.	.	.	16a\	.	16cc#X\	.	.	.	.	.	.	.	.	.	16cc#X\)	.	(16ccc#X\	.
16g/JJ	.	16bb\JJ	.	.	.	16g\JJ	.	16b\JJ	.	.	.	.	.	.	.	.	.	16b\JJ	.	16bb\JJ)	.
16f#/LL	.	16aa\LL	.	.	.	16f#/LL	.	16a/LL	.	.	.	.	.	.	.	4r	4r	(16a\LL	.	(16aa\LL	.
16g/	.	16bb\	.	.	.	16g/	.	16b/	.	.	.	.	.	.	.	.	.	16b\	.	16bb\)	.
16f#/	.	16aa\	.	.	.	16f#/	.	16a/	.	.	.	.	.	.	.	.	.	16a\)	.	(16aa\	.
16e/JJ	.	16gg\JJ	.	.	.	16e/JJ	.	16g/JJ	.	.	.	.	.	.	.	.	.	16g\JJ	.	16gg\JJ)	.
!	!	!	!	!	!	!	!	!	!	!	!	!	!	!	!	!	!	!	!	!LO:LB:g=original	!
=45	=45	=45	=45	=45	=45	=45	=45	=45	=45	=45	=45	=45	=45	=45	=45	=45	=45	=45	=45	=45	=45
!	!	!	!	!	!	!	!	!LO:TX:t=P:problem:mixed beam	!	!	!	!	!	!	!	!LO:TX:a:t=5	!LO:TX:a:t=5	!LO:TX:t=P:problem:mixed beam	!	!	!
16d/LL	.	16ff#\LL	2dd\	.	.	16d/LL	.	16f#/LL	.	2r	.	2r	.	0r	.	0r	0r	16f#/LL	.	(16ff#\LL	.
16b/	.	16ddd\	.	.	.	16b/	.	16dd\	.	.	.	.	.	.	.	.	.	(16ddd\	.	16ddd\)	.
16a/	.	16ccc#\	.	.	.	16a/	.	16cc#X\	.	.	.	.	.	.	.	.	.	16ccc#X\)	.	(16ccc#X\	.
16g/JJ	.	16bb\JJ	.	.	.	16g/JJ	.	16b\JJ	.	.	.	.	.	.	.	.	.	16bb\JJ	.	16bb\JJ)	.
16f#/LL	.	16aa\LL	.	.	.	16f#/LL	.	16a/LL	.	.	.	.	.	.	.	.	.	(16aa\LL	.	(16aa\LL	.
16g/	.	16bb\	.	.	.	16g/	.	16b/	.	.	.	.	.	.	.	.	.	16bb\)	.	16bb\)	.
16f#/	.	16aa\	.	.	.	16f#/	.	16a/	.	.	.	.	.	.	.	.	.	16aa\	.	(16aa\	.
16e/JJ	.	16gg\JJ	.	.	.	16e/JJ	.	16g/JJ	.	.	.	.	.	.	.	.	.	16gg\JJ	.	16gg\JJ)	.
!	!	!	!	!	!	!	!	!	!	!	!	!	!	!	!	!	!	!LO:LB:g=original	!	!	!
=46	=46	=46	=46	=46	=46	=46	=46	=46	=46	=46	=46	=46	=46	=46	=46	=46	=46	=46	=46	=46	=46
!LO:CL:ed	!	!	!	!	!	!	!	!	!	!	!	!	!	!	!	!	!	!	!	!	!
*clefF4	*	*	*	*	*	*	*	*	*	*	*	*	*	*	*	*	*	*	*	*	*
16d\LL	.	16ff#\LL	4ryy	.	.	16dd\LL	.	16ff#\LL	.	2r	.	2r	.	.	.	.	.	4ff#\	.	16ff#\|LL	.
16e\	.	16gg\	.	.	.	16ee\	.	16gg\	.	.	.	.	.	.	.	.	.	.	.	16gg\|	.
16f#\	.	16aa\	.	.	.	16ff#\	.	16aa\	.	.	.	.	.	.	.	.	.	.	.	(16aa\	.
16g\JJ	.	16bb\JJ	.	.	.	16gg\JJ	.	16bb\JJ	.	.	.	.	.	.	.	.	.	.	.	16bb\JJ)	.
16f#\LL	.	16cccXLL 16aa 16dd\	4dd\	.	.	16aa\LL	.	16cccn\LL	.	.	.	.	.	.	.	.	.	4aa\	.	4cccn\	.
16f#\J	.	16cccJ 16aa 16dd\	.	.	.	16aa\J	.	16ccc\J	.	.	.	.	.	.	.	.	.	.	.	.	.
8f#\J	.	8cccJ 8aa 8dd\	.	.	.	8aa\J	.	8ccc\J	.	.	.	.	.	.	.	.	.	.	.	.	.
*	*	*v	*v	*	*	*	*	*	*	*	*	*	*	*	*	*	*	*	*	*	*
!LO:LB:g=original	!	!LO:LB:g=original	!	!	!	!	!	!	!	!	!	!	!	!	!	!	!	!	!	!
=47	=47	=47	=47	=47	=47	=47	=47	=47	=47	=47	=47	=47	=47	=47	=47	=47	=47	=47	=47	=47
16g\LL	.	16bbLL 16gg 16b\	.	.	16gg\LL	.	16bb\LL	.	2r	.	2r	.	.	.	.	.	4gg\	.	4bb\	.
16g\J	.	16bbJ 16gg 16b\	.	.	16gg\J	.	16bb\J	.	.	.	.	.	.	.	.	.	.	.	.	.
8g\J	.	8bbJ 8gg 8b\	.	.	8gg\J	.	8ccc\J	.	.	.	.	.	.	.	.	.	.	.	.	.
16d#X\LL	.	16aaLL 16ff# 16b\	.	.	16ff#\LL	.	16aa\LL	.	.	.	.	.	.	.	.	.	4ff#\	.	4aa\	.
16d#\J	.	16aaJ 16ff# 16b\	.	.	16ff#\J	.	16aa\J	.	.	.	.	.	.	.	.	.	.	.	.	.
8d#\J	.	8aaJ 8ff# 8b\	.	.	8ff#\J	.	8aa\J	.	.	.	.	.	.	.	.	.	.	.	.	.
=48	=48	=48	=48	=48	=48	=48	=48	=48	=48	=48	=48	=48	=48	=48	=48	=48	=48	=48	=48	=48
16e\LL	.	16ggLL 16ee 16b\	.	.	16ee\LL	.	16gg\LL	.	2r	.	2r	.	.	.	.	.	4cc#X\	.	4gg\	.
16e\J	.	16ggJ 16ee 16b\	.	.	16ee\J	.	16gg\J	.	.	.	.	.	.	.	.	.	.	.	.	.
8e\J	.	8ggJ 8ee 8b\	.	.	8ee\J	.	8gg\J	.	.	.	.	.	.	.	.	.	.	.	.	.
16dn\LL	.	16gg#XLL 16ee 16b\	.	.	16ee\LL	.	16gg#X\LL	.	.	.	.	.	.	.	.	.	4ee\	.	4gg#X\	.
16d\J	.	16gg#J 16ee 16b\	.	.	16ee\J	.	16gg#\J	.	.	.	.	.	.	.	.	.	.	.	.	.
8d\J	.	8gg#J 8ee 8b\	.	.	8ee\J	.	8gg#\J	.	.	.	.	.	.	.	.	.	.	.	.	.
=49	=49	=49	=49	=49	=49	=49	=49	=49	=49	=49	=49	=49	=49	=49	=49	=49	=49	=49	=49	=49
8c#\L	6	16aaLL 16ff#\	.	.	16cc#X\LL	.	16aa\LL	.	2r	.	2r	.	1r	.	2r	2r	8ff#\	.	8aa\	.
.	.	16ggn 16ee\	.	.	16ee\	.	16ggn\	.	.	.	.	.	.	.	.	.	.	.	.	.
8c#\J	5	16gg 16ee\	.	.	16ee\	.	16gg\	.	.	.	.	.	.	.	.	.	8r	.	8r	.
.	.	16ggJJ 16ee\	.	.	16ee\JJ	.	16gg\JJ	.	.	.	.	.	.	.	.	.	.	.	.	.
!LO:TX:t=P:problem:mixed beam	!	!	!	!	!	!	!	!	!	!	!	!	!	!	!	!	!	!	!	!
8d\L	3	16ggLL 16ee\	.	.	(16ee\LL	.	16gg\LL	.	.	.	.	.	.	.	.	.	4r	.	4r	.
.	.	16ff# 16dd\	.	.	16dd\)	.	16ff#\	.	.	.	.	.	.	.	.	.	.	.	.	.
8D/J	.	16ff# 16dd\	.	.	16a\	.	16ff#\	.	.	.	.	.	.	.	.	.	.	.	.	.
.	.	16ff#JJ 16dd\	.	.	16a\JJ	.	16ff#\JJ	.	.	.	.	.	.	.	.	.	.	.	.	.
=50	=50	=50	=50	=50	=50	=50	=50	=50	=50	=50	=50	=50	=50	=50	=50	=50	=50	=50	=50	=50
*	*	*^	*	*	*	*	*	*	*	*	*	*	*	*	*	*	*	*	*	*
4G\	6	16ff#/LL	8.b\L	.	.	(16a/LL	.	16ff#\LL	.	2r	.	2r	.	.	.	4r	4r	4r	.	4r	.
.	.	16ee/	.	.	.	16g/)	.	16ee\	.	.	.	.	.	.	.	.	.	.	.	.	.
.	.	16gg/	.	.	.	(16b/	.	16gg\	.	.	.	.	.	.	.	.	.	.	.	.	.
.	.	16ee/JJ	16g\Jk	.	.	16g/JJ)	.	16ee\JJ	.	.	.	.	.	.	.	.	.	.	.	.	.
!LO:TX:t=P:problem:mixed beam	!	!	!	!	!	!	!	!LO:LB:g=original	!	!	!	!	!	!	!	!	!	!	!	!	!
8A\L	6 4	8ddL 8f#/	4f#\yy	.	.	(8f#/L	.	8dd\L	.	.	.	.	.	.	.	8a\L	8dd\L	8ee\L	.	8ddd\L	.
8AA/J	5 7	8cc#J 8e/	.	.	.	8e/J)	.	8cc#X\J	.	.	.	.	.	.	.	8a\J	8ee\J	8ee\J	.	8ccc#X\J	.
*	*	*v	*v	*	*	*	*	*	*	*	*	*	*	*	*	*	*	*	*	*	*
=51	=51	=51	=51	=51	=51	=51	=51	=51	=51	=51	=51	=51	=51	=51	=51	=51	=51	=51	=51	=51
!	!	!	!	!LO:DY:a:t=Piano	!	!	!LO:TX:t=P:problem:mixed beam	!	!	!	!	!	!	!	!	!	!	!	!	!
8D/	3	2ryy	.	p	16f#/LL	.	16dd\LL	.	2r	.	4r	.	4r	.	8d/	8dd\	8dd\	.	4ddd\	.
.	.	.	.	.	16e/	.	16d/	.	.	.	.	.	.	.	.	.	.	.	.	.
8r	.	.	.	.	16e/	.	16d/	.	.	.	.	.	.	.	8r	8r	8r	.	.	.
.	.	.	.	.	16e/JJ	.	16d/JJ	.	.	.	.	.	.	.	.	.	.	.	.	.
8r	.	.	.	.	8b/L	.	8dd\L	.	.	.	16b\	qui	8dd\	Qui	16r	16r	8bb\L	.	8eee\L	.
.	.	.	.	.	.	.	.	.	.	.	16b\	tto-	.	.	32d/LLL	32dd\LLL	.	.	.	.
.	.	.	.	.	.	.	.	.	.	.	.	.	.	.	32d/JJJ	32dd\JJJ	.	.	.	.
8D/	6 4	.	.	.	8g/J	.	8b\J	.	.	.	8g\	-llis	16b\	tol-	16d/LL	16dd\LL	8gg\J	.	8bb\J	.
.	.	.	.	.	.	.	.	.	.	.	.	.	16b\	-lis	16d/JJ	16dd\JJ	.	.	.	.
!LO:LB:g=original	!	!LO:LB:g=original	!	!	!	!	!	!	!	!	!	!	!	!	!	!	!	!	!	!
=52	=52	=52	=52	=52	=52	=52	=52	=52	=52	=52	=52	=52	=52	=52	=52	=52	=52	=52	=52	=52
8D/	5 3	2ryy	.	.	16f#/LL	.	16a/LL	.	2r	.	4r	.	4r	.	8d/	8dd\	8dd\	.	8aa\	.
.	.	.	.	.	16d/	.	16d/	.	.	.	.	.	.	.	.	.	.	.	.	.
8r	.	.	.	.	16d/	.	16d/	.	.	.	.	.	.	.	8r	8r	8r	.	8r	.
.	.	.	.	.	16d/JJ	.	16d/JJ	.	.	.	.	.	.	.	.	.	.	.	.	.
8r	.	.	.	.	8g/L	.	8b/L	.	.	.	16g\	qui	8b\	Qui	16r	16dd\LL	8gg\L	.	8bb\L	.
.	.	.	.	.	.	.	.	.	.	.	16g\	tol-	.	.	32d/LLL	32dd\L	.	.	.	.
!	!	!	!	!	!	!	!	!	!	!	!	!	!	!	!LO:TX:b:t=g	!	!	!	!	!
.	.	.	.	.	.	.	.	.	.	.	.	.	.	.	32d/JJJ	32dd\JJJ	.	.	.	.
8D/	4 2	.	.	.	8e/J	.	8g/J	.	.	.	8e\	-lis	16g\	tol-	16d/LL	16dd\LL	8ee\J	.	8gg\J	.
.	.	.	.	.	.	.	.	.	.	.	.	.	16g\	-lis	16d/JJ	16dd\JJ	.	.	.	.
!	!	!	!	!	!LO:LB:g=original	!	!	!	!	!	!	!	!	!	!	!LO:LB:g=original	!	!	!	!
=53	=53	=53	=53	=53	=53	=53	=53	=53	=53	=53	=53	=53	=53	=53	=53	=53	=53	=53	=53	=53
8D/	3	2ryy	.	.	16d/LL	.	16f#/LL	.	2r	.	4r	.	4r	.	8d/	8dd\	8dd\	.	8ff#\	.
.	.	.	.	.	16d/	.	16d/	.	.	.	.	.	.	.	.	.	.	.	.	.
8r	.	.	.	.	16d/	.	16d/	.	.	.	.	.	.	.	8r	8r	8r	.	8r	.
.	.	.	.	.	16d/JJ	.	16d/JJ	.	.	.	.	.	.	.	.	.	.	.	.	.
8r	.	.	.	.	8b\L	.	8dd\L	.	.	.	16b\	qui	8dd\	Qui	16d/LL	16dd\LL	8bb\L	.	8ddd\L	.
.	.	.	.	.	.	.	.	.	.	.	16b\	tol-	.	.	32d/L	32dd\L	.	.	.	.
.	.	.	.	.	.	.	.	.	.	.	.	.	.	.	32d/JJJ	32dd\JJJ	.	.	.	.
8D/	6 4	.	.	.	8g\J	.	8b\J	.	.	.	8g\	-lis	16b\	tol-	16d/LL	16dd\LL	8gg\J	.	8bb\J	.
.	.	.	.	.	.	.	.	.	.	.	.	.	16b\	-lis	16d/JJ	16dd\JJ	.	.	.	.
!	!	!	!	!	!	!	!	!	!	!	!LO:LB:g=original	!	!	!	!	!	!	!	!	!
=54	=54	=54	=54	=54	=54	=54	=54	=54	=54	=54	=54	=54	=54	=54	=54	=54	=54	=54	=54	=54
8D/	5 3	2ryy	.	.	16f#/LL	.	16a/LL	.	2r	.	4r	.	4r	.	8d/	8dd\	8ff#\	.	8aa\	.
.	.	.	.	.	16d/	.	16d/	.	.	.	.	.	.	.	.	.	.	.	.	.
8r	.	.	.	.	16d/	.	16d/	.	.	.	.	.	.	.	8r	8r	8r	.	8r	.
.	.	.	.	.	16d/JJ	.	16d/JJ	.	.	.	.	.	.	.	.	.	.	.	.	.
8r	.	.	.	.	8g/L	.	8b/L	.	.	.	16g\	qui	8b\	Qui	16d/LL	16dd\LL	8gg\L	.	8bb\L	.
.	.	.	.	.	.	.	.	.	.	.	16g\	tol-	.	.	32d/L	32dd\L	.	.	.	.
.	.	.	.	.	.	.	.	.	.	.	.	.	.	.	32d/JJJ	32dd\JJJ	.	.	.	.
8D/	4 2	.	.	.	8e/J	.	8g/J	.	.	.	8e\	-lis	16g\	tol-	16d/LL	16dd\LL	8ee\J	.	8gg\J	.
.	.	.	.	.	.	.	.	.	.	.	.	.	16g\	-lis	16d/JJ	16dd\JJ	.	.	.	.
!	!	!	!	!	!	!	!	!	!	!	!	!	!	!	!	!	!LO:LB:g=original	!	!LO:LB:g=original	!
=55	=55	=55	=55	=55	=55	=55	=55	=55	=55	=55	=55	=55	=55	=55	=55	=55	=55	=55	=55	=55
!	!	!	!	!	!	!	!	!	!	!	!	!	!	!	!LO:TX:a:t=13	!LO:TX:a:t=13	!	!	!	!
8D/	3	2ryy	.	.	16d/LL	.	16f#/LL	.	2r	.	16r	.	16r	.	0r	0r	8dd\	.	8ff#\	.
.	.	.	.	.	16d/	.	16d/	.	.	.	16b\	pec-	16dd\	pec-	.	.	.	.	.	.
8r	.	.	.	.	16d/	.	16d/	.	.	.	16b\	-ca-	16dd\	-ca-	.	.	8r	.	8r	.
.	.	.	.	.	16d/JJ	.	16d/JJ	.	.	.	16b\	-ta	16dd\	-ta	.	.	.	.	.	.
!	!	!	!	!	!	!	!	!	!	!	!	!	!LO:LB:g=original	!	!	!	!	!	!	!
8r	.	.	.	.	8b/L	.	8dd\L	.	.	.	8b\	mun-	8dd\	mun-	.	.	8bb\L	.	8ddd\L	.
8D/	6 4	.	.	.	8g#X/J	.	8b\J	.	.	.	8g#X\	-di	8b\	-di	.	.	8gg#X\J	.	8bb\J	.
=56	=56	=56	=56	=56	=56	=56	=56	=56	=56	=56	=56	=56	=56	=56	=56	=56	=56	=56	=56	=56
!	!	!	!	!	!	!	!LO:TX:t=P:problem:mixed beam	!	!	!	!	!	!	!	!	!	!	!	!	!
8D/	7 5	2ryy	.	.	16a/LL	.	16cc\LL	.	2r	.	4r	.	16r	.	.	.	8aa\	.	8ccc\	.
.	.	.	.	.	16d/	.	16d/	.	.	.	.	.	16cc\	pec-	.	.	.	.	.	.
8r	.	.	.	.	16d/	.	16d/	.	.	.	.	.	16cc\	-ca-	.	.	8r	.	8r	.
.	.	.	.	.	16d/JJ	.	16d/JJ	.	.	.	.	.	16cc\	-ta	.	.	.	.	.	.
!	!	!	!	!	!	!	!LO:TX:t=P:problem:mixed beam	!	!	!	!	!	!	!	!	!	!	!	!	!
8r	.	.	.	.	8a/L	.	8cc\L	.	.	.	8a\	mun-	8cc\	mun-	.	.	8aa\L	.	8ccc\L	.
8D/	5 3	.	.	.	8e/J	.	8a/J	.	.	.	8f#\	-di	8a\	-di	.	.	8ff#\J	.	8bb\J	.
=57	=57	=57	=57	=57	=57	=57	=57	=57	=57	=57	=57	=57	=57	=57	=57	=57	=57	=57	=57	=57
!	!	!	!	!	!	!	!LO:TX:t=P:problem:mixed beam	!	!	!	!	!	!	!	!	!	!	!	!	!LO:DY:a:t=Piano
8G\	3	2ryy	.	.	16g/LL	.	16b\LL	.	2r	.	8g\	mi-	8b\	mi-	.	.	4gg\	.	2gg\	p
.	.	.	.	.	16g/	.	16g/	.	.	.	.	.	.	.	.	.	.	.	.	.
8r	.	.	.	.	16g/	.	16g/	.	.	.	8g\	-se-	8g\	-se-	.	.	.	.	.	.
.	.	.	.	.	16g/JJ	.	16g/JJ	.	.	.	.	.	.	.	.	.	.	.	.	.
8r	.	.	.	.	8ee\L	.	8gg\L	.	.	.	8ee\	-re-	8gg\	-re-	.	.	4g/	.	.	.
8G\	6 4	.	.	.	8cc#X\J	.	8ee\J	.	.	.	8cc#X\	-re	8ee\	-re	.	.	.	.	.	.
!LO:LB:g=original	!LO:LB:g=original	!	!	!	!	!	!	!	!	!	!	!	!	!	!	!	!	!	!	!
=58	=58	=58	=58	=58	=58	=58	=58	=58	=58	=58	=58	=58	=58	=58	=58	=58	=58	=58	=58	=58
!	!	!	!	!	!	!	!LO:TX:t=P:problem:mixed beam	!	!	!	!	!	!	!	!	!	!	!LO:DY:a:t=Piano	!	!
8G\	7 -5	2ryy	.	.	16dd\LL	.	16ffn\LL	.	2r	.	8g\	mi-	8ffn\	mi-	.	.	2g/	p	(2gg\	.
.	.	.	.	.	16g\	.	16g/	.	.	.	.	.	.	.	.	.	.	.	.	.
8r	.	.	.	.	16g\	.	16g/	.	.	.	8g\	-se-	8b\	-se-	.	.	.	.	.	.
.	.	.	.	.	16g\JJ	.	16g/JJ	.	.	.	.	.	.	.	.	.	.	.	.	.
8r	.	.	.	.	8dd\L	.	8ff\L	.	.	.	8dd\	-re-	8ff\	-re-	.	.	.	.	.	.
!	!	!	!	!	!	!	!	!	!	!	!LO:TX:b:i:t=Verte	!	!	!	!	!	!LO:TX:b:t=30	!	!	!
8G\	.	.	.	.	8b\J	.	8dd\J	.	.	.	8b\	-re	8dd\	-re	.	.	.	.	.	.
!	!	!	!	!	!	!	!LO:LB:g=original	!	!	!	!LO:PB:g=original	!	!	!	!	!	!	!	!	!
=59	=59	=59	=59	=59	=59	=59	=59	=59	=59	=59	=59	=59	=59	=59	=59	=59	=59	=59	=59	=59
!	!	!	!	!	!	!	!LO:TX:t=P:problem:mixed beam	!	!	!	!	!	!	!	!	!	!	!	!	!
8c\	3	2ryy	.	.	16cc\LL	.	16ee\LL	.	2r	.	8cc\	Mi-	8ee\	mi-	0r	0r	[2ee\	.	2ee\)	.
.	.	.	.	.	16e\	.	16e/	.	.	.	.	.	.	.	.	.	.	.	.	.
8r	.	.	.	.	16e\	.	16e/	.	.	.	8e\	-se-	8g/	-se-	.	.	.	.	.	.
.	.	.	.	.	16e\JJ	.	16e/JJ	.	.	.	.	.	.	.	.	.	.	.	.	.
8r	.	.	.	.	8cc\L	.	8ee\L	.	.	.	8cc\	-re-	(8ee\	-re-	.	.	.	.	.	.
8E\	6 4	.	.	.	8a\J	.	8cc\J	.	.	.	8a\	-re	8cc\)	-re	.	.	.	.	.	.
=60	=60	=60	=60	=60	=60	=60	=60	=60	=60	=60	=60	=60	=60	=60	=60	=60	=60	=60	=60	=60
!	!	!	!	!	!	!	!LO:TX:t=P:problem:mixed beam	!	!	!	!	!	!	!	!	!	!	!	!	!
8E\	-7 5	2ryy	.	.	16b/LL	.	16dd\LL	.	2r	.	(8cc\L	no-	16dd\	mi-	.	.	2ee\]	.	2ee\	.
.	.	.	.	.	16e/	.	16e/	.	.	.	.	.	16dd\	-se-	.	.	.	.	.	.
8r	.	.	.	.	16e/	.	16e/	.	.	.	8e\J)	.	8dd\	-re-	.	.	.	.	.	.
.	.	.	.	.	16e/JJ	.	16e/JJ	.	.	.	.	.	.	.	.	.	.	.	.	.
!	!	!	!	!	!	!	!	!	!	!	!	!	!LO:LB:g=original	!	!	!	!	!	!	!
8r	.	.	.	.	8b/L	.	8dd\L	.	.	.	(8cc\L	.	8dd\	-re	.	.	.	.	.	.
!LO:TX:b:t=30	!	!	!	!	!LO:TX:t=vi&colon;:problem:5 taktów skreślonych	!	!LO:TX:a:t=30	!	!	!	!	!	!	!	!	!	!	!	!LO:TX:a:t=30	!
8E\	5 #	.	.	.	8g#X/J	.	8b\J	.	.	.	8g#X\J)	.	8b\	no-	.	.	.	.	.	.
=61	=61	=61	=61	=61	=61	=61	=61	=61	=61	=61	=61	=61	=61	=61	=61	=61	=61	=61	=61	=61
!	!	!	!	!	!LO:TX:a:t=de.	!	!	!	!	!	!	!	!	!	!	!	!	!	!	!
4A\	5 3	2ryy	.	.	8a/L	.	16cc/LL	.	2r	.	4e/	-bis	4cc\	-bis	.	.	4ee\	.	4ee\	.
.	.	.	.	.	.	.	16e/	.	.	.	.	.	.	.	.	.	.	.	.	.
.	.	.	.	.	(8e/J	.	16e/	.	.	.	.	.	.	.	.	.	.	.	.	.
.	.	.	.	.	.	.	16cc/JJ	.	.	.	.	.	.	.	.	.	.	.	.	.
4Gn\	6 6	.	.	.	4e-X/)	.	16cc/LL	.	.	.	4r	.	4r	.	.	.	4r	.	4r	.
.	.	.	.	.	.	.	16e-X/	.	.	.	.	.	.	.	.	.	.	.	.	.
.	.	.	.	.	.	.	16e-/	.	.	.	.	.	.	.	.	.	.	.	.	.
.	.	.	.	.	.	.	16e-/JJ	.	.	.	.	.	.	.	.	.	.	.	.	.
=62	=62	=62	=62	=62	=62	=62	=62	=62	=62	=62	=62	=62	=62	=62	=62	=62	=62	=62	=62	=62
!	!	!	!	!	!	!	!	!	!	!	!LO:TX:a:t=5	!	!LO:TX:a:t=5	!	!	!	!LO:TX:a:t=5	!	!LO:TX:a:t=5	!
4Gn\	6 5	4r	.	.	4d/	.	16cc/LL	.	2r	.	0r	.	0r	.	.	.	0r	.	0r	.
.	.	.	.	.	.	.	16e/	.	.	.	.	.	.	.	.	.	.	.	.	.
.	.	.	.	.	.	.	16e/	.	.	.	.	.	.	.	.	.	.	.	.	.
.	.	.	.	.	.	.	16cc/JJ	.	.	.	.	.	.	.	.	.	.	.	.	.
4G\	.	16cc/LL	.	.	8d/L	.	16cc/LL	.	.	.	.	.	.	.	.	.	.	.	.	.
.	.	16b/	.	.	.	.	16b/	.	.	.	.	.	.	.	.	.	.	.	.	.
.	.	16a/	.	.	8B/J	.	16a/	.	.	.	.	.	.	.	.	.	.	.	.	.
!	!	!	!	!	!	!	!LO:TX:a:t=30:przekreślone	!	!	!	!	!	!	!	!	!	!	!	!	!
.	.	16g/JJ	.	.	.	.	16g/JJ	.	.	.	.	.	.	.	.	.	.	.	.	.
=63	=63	=63	=63	=63	=63	=63	=63	=63	=63	=63	=63	=63	=63	=63	=63	=63	=63	=63	=63	=63
8c\	.	16fX/LL	.	.	8c/	.	16fn/LL	.	2r	.	.	.	.	.	0r	0r	.	.	.	.
.	.	16e/	.	.	.	.	16e/	.	.	.	.	.	.	.	.	.	.	.	.	.
!	!	!	!	!	!	!	!LO:TX:b:t=d	!	!	!	!	!	!	!	!	!	!	!	!	!
8r	.	16d#X/	.	.	8r	.	16d#X/	.	.	.	.	.	.	.	.	.	.	.	.	.
.	.	16e/JJ	.	.	.	.	16e/JJ	.	.	.	.	.	.	.	.	.	.	.	.	.
8c\	.	16g#X/LL	.	.	8e/	.	16g#X/LL	.	.	.	.	.	.	.	.	.	.	.	.	.
.	.	16a/	.	.	.	.	16a/	.	.	.	.	.	.	.	.	.	.	.	.	.
8r	.	16b/	.	.	8r	.	16b/	.	.	.	.	.	.	.	.	.	.	.	.	.
!	!	!LO:TX:b:i:t=Verte	!	!	!	!	!	!	!	!	!	!	!	!	!	!	!	!	!	!
.	.	16cc/JJ	.	.	.	.	16cc/JJ	.	.	.	.	.	.	.	.	.	.	.	.	.
!LO:PB:g=original	!	!LO:PB:g=original	!	!	!	!	!	!	!	!	!	!	!	!	!	!	!	!	!	!
=64	=64	=64	=64	=64	=64	=64	=64	=64	=64	=64	=64	=64	=64	=64	=64	=64	=64	=64	=64	=64
*	*	*	*	*	*tremolo	*	*	*	*	*	*	*	*	*	*	*	*	*	*	*
4.c\	.	16g#X/LL	.	.	8e/L	.	16g#X/LL	.	2r	.	.	.	.	.	.	.	.	.	.	.
.	.	16a/	.	.	.	.	16a/	.	.	.	.	.	.	.	.	.	.	.	.	.
.	.	16b/	.	.	8e/	.	16b/	.	.	.	.	.	.	.	.	.	.	.	.	.
.	.	16cc/JJ	.	.	.	.	16cc/JJ	.	.	.	.	.	.	.	.	.	.	.	.	.
.	.	16b/LL	.	.	8e/	.	16b/LL	.	.	.	.	.	.	.	.	.	.	.	.	.
.	.	16a/	.	.	.	.	16a/	.	.	.	.	.	.	.	.	.	.	.	.	.
8c#\	.	16a/	.	.	8e/J	.	16a/	.	.	.	.	.	.	.	.	.	.	.	.	.
.	.	16g/JJ	.	.	.	.	16gn/JJ	.	.	.	.	.	.	.	.	.	.	.	.	.
=65	=65	=65	=65	=65	=65	=65	=65	=65	=65	=65	=65	=65	=65	=65	=65	=65	=65	=65	=65	=65
.	.	8qqg/	.	.	.	.	.	.	.	.	.	.	.	.	.	.	.	.	.	.
!	!	!	!	!	!	!	!LO:TX:a:t=P:problem:♮ above	!	!	!	!	!	!	!	!	!	!	!	!	!
8d\L	.	8f#/L	.	.	8d/L	.	8fn/L	.	2r	.	.	.	.	.	.	.	.	.	.	.
8A\	.	16e/L	.	.	8d/	.	8e/J	.	.	.	.	.	.	.	.	.	.	.	.	.
.	.	16d/JJ	.	.	.	.	.	.	.	.	.	.	.	.	.	.	.	.	.	.
8D\	.	8d/L	.	.	8d/	.	8d/L	.	.	.	.	.	.	.	.	.	.	.	.	.
8D\J	.	8d/J	.	.	8d/J	.	8d/J	.	.	.	.	.	.	.	.	.	.	.	.	.
*	*	*	*	*	*Xtremolo	*	*	*	*	*	*	*	*	*	*	*	*	*	*	*
=66	=66	=66	=66	=66	=66	=66	=66	=66	=66	=66	=66	=66	=66	=66	=66	=66	=66	=66	=66	=66
4D/	.	4d/	.	.	4d/	.	4d/	.	2r	.	2r	.	2r	.	.	.	2r	.	2r	.
!	!	!	!	!LO:DY:a:t=forte	!	!	!	!	!	!	!	!	!	!	!	!	!	!	!	!
4r	.	16dd/LL	.	f	4ryy	.	4r	.	.	.	.	.	.	.	.	.	.	.	.	.
.	.	16b/	.	.	.	.	.	.	.	.	.	.	.	.	.	.	.	.	.	.
.	.	16cc/	.	.	.	.	.	.	.	.	.	.	.	.	.	.	.	.	.	.
!	!	!	!	!	!	!	!	!	!LO:TX:b:i:t=Verte	!	!	!	!	!	!	!	!	!	!	!
.	.	16a/JJ	.	.	.	.	.	.	.	.	.	.	.	.	.	.	.	.	.	.
!	!	!	!	!	!	!	!LO:LB:g=original	!	!LO:PB:g=original	!	!	!	!	!	!	!	!	!	!	!
=67	=67	=67	=67	=67	=67	=67	=67	=67	=67	=67	=67	=67	=67	=67	=67	=67	=67	=67	=67	=67
!LO:TX:t=P:problem:mixed beam	!	!	!	!	!	!LO:DY:b:t=po&colon;	!	!	!	!	!	!	!	!	!	!	!	!LO:DY:a:t=forte	!	!LO:DY:a:t=forte
16GG/LL	.	8bL 8g/	Quo-	.	8g/L	p	8b\L	.	8G\	Quo-	8g\	Quo-	8b\	Quo-	2r	2r	8gg\L	f	8bb\L	f
16G\	.	.	.	.	.	.	.	.	.	.	.	.	.	.	.	.	.	.	.	.
16D\	.	8bJ 8g/	-ni-	.	8g/	.	8b\	.	8G\	-ni-	8g\	-ni-	8b\	-ni-	.	.	8gg\	.	8bb\	.
16G\JJ	.	.	.	.	.	.	.	.	.	.	.	.	.	.	.	.	.	.	.	.
*rep	*	*	*	*	*	*	*	*	*	*	*	*	*	*	*	*	*	*	*	*
!LO:TX:t=P:problem:mixed beam	!	!	!	!	!	!	!	!	!	!	!	!	!	!	!	!	!	!	!	!
16GG/LL	.	8cc 8a/	-am	.	8a/	.	8cc\	.	8A\	-am	8a\	-am	8cc\	-am	.	.	8aa\	.	8ccc\	.
16G\	.	.	.	.	.	.	.	.	.	.	.	.	.	.	.	.	.	.	.	.
16D\	.	8cc 8a/	tu	.	8a/J	.	8cc\J	.	8A\	tu	8a\	tu	8cc\	tu	.	.	8aa\J	.	8ccc\J	.
16G\JJ	.	.	.	.	.	.	.	.	.	.	.	.	.	.	.	.	.	.	.	.
*Xrep	*	*	*	*	*	*	*	*	*	*	*	*	*	*	*	*	*	*	*	*
!	!	!	!	!	!	!	!	!	!	!	!	!	!	!	!LO:LB:g=original	!	!	!	!	!
=68	=68	=68	=68	=68	=68	=68	=68	=68	=68	=68	=68	=68	=68	=68	=68	=68	=68	=68	=68	=68
*rep	*	*	*	*	*	*	*	*	*	*	*	*	*	*	*	*	*	*	*	*
!LO:TX:t=P:problem:mixed beam	!	!	!	!	!	!	!LO:N:vis=8	!	!	!	!	!	!	!	!	!	!	!	!	!
16GG/LL	.	8dd 8b/	so-	.	8b/	.	4dd\	.	8G\	so-	8b\	so-	8dd\	so-	8r	8r	4bb\	.	4ddd\	.
16G\	.	.	.	.	.	.	.	.	.	.	.	.	.	.	.	.	.	.	.	.
16D\	.	8dd 8b/	-lus	.	8r	.	.	.	8G\	-lus	8b\	-lus	8dd\	-lus	16.G/LL	16.g\LL	.	.	.	.
16G\JJ	.	.	.	.	.	.	.	.	.	.	.	.	.	.	.	.	.	.	.	.
.	.	.	.	.	.	.	.	.	.	.	.	.	.	.	32G/JJk	32g\JJk	.	.	.	.
*Xrep	*	*	*	*	*	*	*	*	*	*	*	*	*	*	*	*	*	*	*	*
*rep	*	*	*	*	*	*	*	*	*	*	*	*	*	*	*	*	*	*	*	*
!LO:TX:t=P:problem:mixed beam	!	!	!	!	!	!	!	!	!	!	!	!	!	!	!	!	!	!	!	!
16GG/LL	.	8r	.	.	8a/	.	8r	.	8r	.	8r	.	8r	.	8G/	8g\	8r	.	8r	.
16G\	.	.	.	.	.	.	.	.	.	.	.	.	.	.	.	.	.	.	.	.
16D\	.	8cc 8a/	tu	.	8r	.	8cc\	.	8D\	tu	8a\	tu	8cc\	tu	8r	8r	8aa\	.	8ccc\	.
16G\JJ	.	.	.	.	.	.	.	.	.	.	.	.	.	.	.	.	.	.	.	.
*Xrep	*	*	*	*	*	*	*	*	*	*	*	*	*	*	*	*	*	*	*	*
=69	=69	=69	=69	=69	=69	=69	=69	=69	=69	=69	=69	=69	=69	=69	=69	=69	=69	=69	=69	=69
*rep	*	*	*	*	*	*	*	*	*	*	*	*	*	*	*	*	*	*	*	*
!LO:TX:t=P:problem:mixed beam	!	!	!	!	!	!	!	!	!	!	!	!	!	!	!LO:TX:a:t=1	!LO:TX:a:t=1	!	!	!	!
16GG/LL	.	8b 8g 8B/	so-	.	8g/L	.	8b/L	.	8G\	so-	8g\	so-	8b\	so-	2r	2r	8gg\L	.	8bb\L	.
16G\	.	.	.	.	.	.	.	.	.	.	.	.	.	.	.	.	.	.	.	.
16D\	.	8b 8g 8B/	-lus	.	16g/L	.	8b/	.	8G\	-lus	8g\	-lus	8b\	-lus	.	.	8gg\	.	8bb\	.
16G\JJ	.	.	.	.	16d/JJ	.	.	.	.	.	.	.	.	.	.	.	.	.	.	.
*Xrep	*	*	*	*	*	*	*	*	*	*	*	*	*	*	*	*	*	*	*	*
*rep	*	*	*	*	*	*	*	*	*	*	*	*	*	*	*	*	*	*	*	*
!LO:TX:t=P:problem:mixed beam	!	!	!	!	!	!	!	!	!	!	!	!	!	!	!	!	!	!	!LO:TX:t=a	!
16GG/LL	.	4a 4c/	San-	.	8c/L	.	8a/	.	4C/	San-	4c/	San-	4a\	San-	.	.	8cc\	.	8ccc\	.
16G\	.	.	.	.	.	.	.	.	.	.	.	.	.	.	.	.	.	.	.	.
16D\	.	.	.	.	8c/J	.	8a/J	.	.	.	.	.	.	.	.	.	8cc\J	.	8aa\J	.
16G\JJ	.	.	.	.	.	.	.	.	.	.	.	.	.	.	.	.	.	.	.	.
*Xrep	*	*	*	*	*	*	*	*	*	*	*	*	*	*	*	*	*	*	*	*
!LO:LB:g=original	!	!LO:LB:g=original	!	!	!LO:LB:g=original	!	!	!	!	!	!	!	!	!	!	!	!	!	!	!
=70	=70	=70	=70	=70	=70	=70	=70	=70	=70	=70	=70	=70	=70	=70	=70	=70	=70	=70	=70	=70
*rep	*	*	*	*	*	*	*	*	*	*	*	*	*	*	*	*	*	*	*	*
!LO:TX:t=P:problem:mixed beam	!	!	!	!	!	!	!	!	!	!	!	!	!	!	!	!	!	!	!	!
16GG/LL	.	4g 4B/	-nctus	.	4B/	.	4g/	.	4G\	-ctus	4B/	-ctus	4g\	-ctus	8r	8r	4b\	.	4gg\	.
16G\	.	.	.	.	.	.	.	.	.	.	.	.	.	.	.	.	.	.	.	.
16D\	.	.	.	.	.	.	.	.	.	.	.	.	.	.	16.G/LL	16.g\LL	.	.	.	.
16G\JJ	.	.	.	.	.	.	.	.	.	.	.	.	.	.	.	.	.	.	.	.
.	.	.	.	.	.	.	.	.	.	.	.	.	.	.	32G/JJk	32g\JJk	.	.	.	.
*Xrep	*	*	*	*	*	*	*	*	*	*	*	*	*	*	*	*	*	*	*	*
*rep	*	*	*	*	*	*	*	*	*	*	*	*	*	*	*	*	*	*	*	*
!LO:TX:t=P:problem:mixed beam	!	!	!	!	!	!	!	!	!	!	!	!	!	!	!	!	!	!	!	!
16GG/LL	.	8r	.	.	8r	.	8r	.	8r	.	8r	.	8r	.	8G/	8g\	8r	.	8r	.
16G\	.	.	.	.	.	.	.	.	.	.	.	.	.	.	.	.	.	.	.	.
16D\	.	16aLL 16f#/	tu	.	16f#/LL	.	16a/LL	.	8C/	tu	(16f#\LL	tu	(16a\LL	tu	8r	8r	16ff#\LL	.	16aa\LL	.
16G\JJ	.	16ccJJ 16a/	.	.	16a/JJ	.	16cc/JJ	.	.	.	16a\JJ)	.	16cc\JJ)	.	.	.	16aa\JJ	.	16ccc\JJ	.
*Xrep	*	*	*	*	*	*	*	*	*	*	*	*	*	*	*	*	*	*	*	*
!	!	!	!	!	!	!	!	!	!	!	!LO:LB:g=original	!	!	!	!	!	!	!	!	!
=71	=71	=71	=71	=71	=71	=71	=71	=71	=71	=71	=71	=71	=71	=71	=71	=71	=71	=71	=71	=71
*rep	*	*	*	*	*	*	*	*	*	*	*	*	*	*	*	*	*	*	*	*
!LO:TX:t=P:problem:mixed beam	!	!	!	!	!	!	!	!	!	!	!	!	!	!	!LO:TX:a:t=1	!LO:TX:a:t=1	!	!	!	!
16GG/LL	.	8b 8g/	so-	.	8g/L	.	8b\L	.	8G\	so-	8g\|	so-	8b\|	so-	2r	2r	8gg\L	.	8bb\|L	.
16G\	.	.	.	.	.	.	.	.	.	.	.	.	.	.	.	.	.	.	.	.
16D\	.	16bLL 16g/	-lus	.	8g/	.	8b\	.	8G\	-lus	(16g\LL	-lus	(16b\LL	-lus	.	.	8gg\	.	8bb\|	.
16G\JJ	.	16ddJJ 16b/	.	.	.	.	.	.	.	.	16b\JJ)	.	16dd\JJ)	.	.	.	.	.	.	.
*Xrep	*	*	*	*	*	*	*	*	*	*	*	*	*	*	*	*	*	*	*	*
*rep	*	*	*	*	*	*	*	*	*	*	*	*	*	*	*	*	*	*	*	*
!LO:TX:t=P:problem:mixed beam	!	!	!	!	!	!	!	!	!	!	!	!	!LO:LB:g=original	!	!	!	!	!	!	!
16GG/LL	.	8cc 8a/	Do-	.	8a/	.	8cc\	.	8A\	Do-	8a\|	Do-	8cc\|	Do-	.	.	8aa\	.	8ccc\|	.
16G\	.	.	.	.	.	.	.	.	.	.	.	.	.	.	.	.	.	.	.	.
16D\	.	16ccLL 16a/	-mi-	.	8a/J	.	8cc\J	.	8A\	-mi-	(16a\LL	-mi-	(16cc\LL	-mi-	.	.	8aa\J	.	8ccc\|J	.
16G\JJ	.	16eeJJ 16cc/	.	.	.	.	.	.	.	.	16cc\JJ)	.	16ee\JJ)	.	.	.	.	.	.	.
*Xrep	*	*	*	*	*	*	*	*	*	*	*	*	*	*	*	*	*	*	*	*
=72	=72	=72	=72	=72	=72	=72	=72	=72	=72	=72	=72	=72	=72	=72	=72	=72	=72	=72	=72	=72
*rep	*	*	*	*	*	*	*	*	*	*	*	*	*	*	*	*	*	*	*	*
!LO:TX:t=P:problem:mixed beam	!	!	!	!	!	!	!	!	!LO:N:vis=8	!	!	!	!	!	!	!	!	!	!	!
16GG/LL	.	4dd 4b/	-nus	.	4b/	.	4dd\	.	4G\	-nus	4b\	-nus	4dd\	-nus	8r	8r	4bb\	.	4ddd\	.
16G\	.	.	.	.	.	.	.	.	.	.	.	.	.	.	.	.	.	.	.	.
16D\	.	.	.	.	.	.	.	.	.	.	.	.	.	.	16.G/LL	16.g\LL	.	.	.	.
16G\JJ	.	.	.	.	.	.	.	.	.	.	.	.	.	.	.	.	.	.	.	.
.	.	.	.	.	.	.	.	.	.	.	.	.	.	.	32G/JJk	32g\JJk	.	.	.	.
*Xrep	*	*	*	*	*	*	*	*	*	*	*	*	*	*	*	*	*	*	*	*
*rep	*	*	*	*	*	*	*	*	*	*	*	*	*	*	*	*	*	*	*	*
!LO:TX:t=P:problem:mixed beam	!	!	!	!	!	!	!	!	!	!	!	!	!	!	!	!	!	!	!	!
16GG/LL	.	8r	.	.	8r	.	8r	.	8r	.	8r	.	8r	.	8G/	8g\	8r	.	8r	.
16G\	.	.	.	.	.	.	.	.	.	.	.	.	.	.	.	.	.	.	.	.
16D\	.	8cc 8a/	tu	.	8a/	.	8cc\	.	8A\	tu	8a\	tu	8cc\	tu	8r	8r	8aa\	.	8ccc\	.
16G\JJ	.	.	.	.	.	.	.	.	.	.	.	.	.	.	.	.	.	.	.	.
*Xrep	*	*	*	*	*	*	*	*	*	*	*	*	*	*	*	*	*	*	*	*
!	!	!	!	!	!	!	!	!	!	!	!	!	!	!	!	!LO:LB:g=original	!LO:LB:g=original	!	!LO:LB:g=original	!
=73	=73	=73	=73	=73	=73	=73	=73	=73	=73	=73	=73	=73	=73	=73	=73	=73	=73	=73	=73	=73
*rep	*	*	*	*	*	*	*	*	*	*	*	*	*	*	*	*	*	*	*	*
!LO:TX:t=P:problem:mixed beam	!	!	!	!	!	!	!	!	!	!	!	!	!	!	!LO:TX:a:t=1	!LO:TX:a:t=1	!	!	!	!
16GG/LL	.	8b 8g/	so-	.	8g/L	.	8b/L	.	8F#\	so-	8g\	so-	8b\	so-	2r	2r	8gg\L	.	8bb\L	.
16G\	.	.	.	.	.	.	.	.	.	.	.	.	.	.	.	.	.	.	.	.
16D\	.	16bLL 16g/	-lus	.	16g/L	.	8b/	.	16G\	-lus	16g\	-lus	16b\	-lus	.	.	8gg\	.	8bb\	.
16G\JJ	.	16bJJ 16g/	al-	.	16d/JJ	.	.	.	16G\	al-	16g\	al-	16b\	al-	.	.	.	.	.	.
*Xrep	*	*	*	*	*	*	*	*	*	*	*	*	*	*	*	*	*	*	*	*
*rep	*	*	*	*	*	*	*	*	*	*	*	*	*	*	*	*	*	*	*	*
!LO:TX:t=P:problem:mixed beam	!	!	!	!	!	!	!	!	!	!	!	!	!	!	!	!	!	!	!	!
16GG/LL	.	8a 8c/	-ti-	.	8c/L	.	8a/	.	8D\	-tiſ-	8f#\	-tiſ-	8a\	-tiſ-	.	.	8cc\	.	8aa\	.
16G\	.	.	.	.	.	.	.	.	.	.	.	.	.	.	.	.	.	.	.	.
16D\	.	8a 8c/	-sſi-	.	8c/J	.	8a/J	.	8D\	-si-	8f#\	-si-	8a\	-si-	.	.	8cc\J	.	8aa\J	.
16G\JJ	.	.	.	.	.	.	.	.	.	.	.	.	.	.	.	.	.	.	.	.
*Xrep	*	*	*	*	*	*	*	*	*	*	*	*	*	*	*	*	*	*	*	*
!	!	!	!	!	!	!	!	!	!LO:LB:g=original	!	!	!	!	!	!	!	!	!	!	!
=74	=74	=74	=74	=74	=74	=74	=74	=74	=74	=74	=74	=74	=74	=74	=74	=74	=74	=74	=74	=74
!LO:TX:t=P:problem:mixed beam	!	!	!	!	!	!	!	!	!	!	!	!	!	!	!	!	!	!	!	!
16GG/LL	.	4g 4B/	-mus	.	4B/	.	4g/	.	8G\	-mus	4d/	-mus	4g\	-mus	8r	8r	4b\	.	4gg\	.
16G\	.	.	.	.	.	.	.	.	.	.	.	.	.	.	.	.	.	.	.	.
16D\	.	.	.	.	.	.	.	.	8r	.	.	.	.	.	16.G/LL	16.g\LL	.	.	.	.
16G\JJ	.	.	.	.	.	.	.	.	.	.	.	.	.	.	.	.	.	.	.	.
.	.	.	.	.	.	.	.	.	.	.	.	.	.	.	32G/JJk	32g\JJk	.	.	.	.
!LO:N:vis=4	!	!LO:N:vis=8	!	!	!	!	!	!	!	!	!	!	!	!	!	!	!	!	!	!
8GG/	.	16r	.	.	4r	.	4r	.	4r	.	4r	.	4r	.	8G/	8g\	4r	.	4r	.
!	!	!	!	!LO:DY:a:t=Piano	!	!	!	!	!	!	!	!	!	!	!	!	!	!	!	!
.	.	16g/LL	tu	p	.	.	.	.	.	.	.	.	.	.	.	.	.	.	.	.
8r	.	16b/	.	.	.	.	.	.	.	.	.	.	.	.	8r	8r	.	.	.	.
.	.	16dd/JJ	.	.	.	.	.	.	.	.	.	.	.	.	.	.	.	.	.	.
=75	=75	=75	=75	=75	=75	=75	=75	=75	=75	=75	=75	=75	=75	=75	=75	=75	=75	=75	=75	=75
*	*	*	*	*	*	*	*	*	*	*	*	*	*	*	*	*2\right	*	*	*	*
!	!	!	!	!	!	!	!	!	!LO:TX:a:t=6	!	!LO:TX:a:t=6	!	!	!	!	!	!	!LO:DY:a:rj:t=Pia	!	!LO:DY:a:rj:t=Pia
16G\LL	.	8ee\	so-	.	8cc\	.	8r	.	0r	.	0r	.	8ee\	so-	2G/	2g\	2ccc\	p	2eee\	p
16e\	.	.	.	.	.	.	.	.	.	.	.	.	.	.	.	.	.	.	.	.
16B\	.	8cc\	-lus	.	8r	.	8ee\	.	.	.	.	.	8cc\	-lus	.	.	.	.	.	.
16e\JJ	.	.	.	.	.	.	.	.	.	.	.	.	.	.	.	.	.	.	.	.
*rep	*	*	*	*	*	*	*	*	*	*	*	*	*	*	*	*	*	*	*	*
16G\LL	.	16cc/LL	al-	.	8cc\	.	8r	.	.	.	.	.	(16cc\LL	al-	.	.	.	.	.	.
16e\	.	16b/	.	.	.	.	.	.	.	.	.	.	16b\JJ)	.	.	.	.	.	.	.
16B\	.	16cc/	.	.	8r	.	8ee\	.	.	.	.	.	(16cc\LL	-ti-	.	.	.	.	.	.
16e\JJ	.	16ee/JJ	.	.	.	.	.	.	.	.	.	.	16ee\JJ)	.	.	.	.	.	.	.
*Xrep	*	*	*	*	*	*	*	*	*	*	*	*	*	*	*	*	*	*	*	*
!LO:LB:g=original	!	!LO:LB:g=original	!	!	!	!	!	!	!	!	!	!	!	!	!	!	!	!	!	!
=76	=76	=76	=76	=76	=76	=76	=76	=76	=76	=76	=76	=76	=76	=76	=76	=76	=76	=76	=76	=76
16G\LL	.	16dd/LL	-tis-	.	8b\	.	8r	.	.	.	.	.	(16dd\LL	-si-	2G/	2g\	2bb\	.	2ddd\	.
16d\	.	16b/JJ	-ſi-	.	.	.	.	.	.	.	.	.	16b\JJ)	.	.	.	.	.	.	.
16B\	.	8g/	-mus	.	8r	.	8dd\	.	.	.	.	.	8g\	-mus	.	.	.	.	.	.
16d\JJ	.	.	.	.	.	.	.	.	.	.	.	.	.	.	.	.	.	.	.	.
*rep	*	*	*	*	*	*	*	*	*	*	*	*	*	*	*	*	*	*	*	*
16G\LL	.	16r	.	.	8b\	.	8r	.	.	.	.	.	4r	.	.	.	.	.	.	.
16d\	.	16g/LL	Je-	.	.	.	.	.	.	.	.	.	.	.	.	.	.	.	.	.
16B\	.	16b/	.	.	8r	.	8dd\	.	.	.	.	.	.	.	.	.	.	.	.	.
16d\JJ	.	16dd/JJ	.	.	.	.	.	.	.	.	.	.	.	.	.	.	.	.	.	.
*Xrep	*	*	*	*	*	*	*	*	*	*	*	*	*	*	*	*	*	*	*	*
!	!	!	!	!	!	!	!	!	!	!	!	!	!	!	!LO:LB:g=original	!	!	!	!	!
=77	=77	=77	=77	=77	=77	=77	=77	=77	=77	=77	=77	=77	=77	=77	=77	=77	=77	=77	=77	=77
!	!	!	!	!	!	!	!LO:TX:t=P:problem:takty 77-78 zapisane repetycją	!	!	!	!	!	!	!	!	!	!	!	!LO:TX:t=P:problem:takty 77-78 zapisane repetycją	!
16G\LL	.	8ee\	.	.	8cc\	.	8ryy	.	.	.	.	.	8ee\	Je-	2G/	2f#\	2ccc\	.	2eee\yy	.
16e\	.	.	.	.	.	.	.	.	.	.	.	.	.	.	.	.	.	.	.	.
16B\	.	8cc\	-su	.	8r	.	8ee\yy	.	.	.	.	.	8cc\	-su	.	.	.	.	.	.
16e\JJ	.	.	.	.	.	.	.	.	.	.	.	.	.	.	.	.	.	.	.	.
*rep	*	*	*	*	*	*	*	*	*	*	*	*	*	*	*	*	*	*	*	*
!	!	!	!	!	!	!	!	!	!	!	!	!	!LO:LB:g=original	!	!	!	!	!	!	!
16G\LL	.	16cc/LL	Je-	.	8cc\	.	8ryy	.	.	.	.	.	(16cc\LL	Chry-	.	.	.	.	.	.
16e\	.	16b/	.	.	.	.	.	.	.	.	.	.	16b\JJ)	.	.	.	.	.	.	.
16B\	.	16cc/	-su	.	8r	.	8ee\yy	.	.	.	.	.	(16cc\LL	.	.	.	.	.	.	.
16e\JJ	.	16ee/JJ	.	.	.	.	.	.	.	.	.	.	16ee\JJ)	.	.	.	.	.	.	.
*Xrep	*	*	*	*	*	*	*	*	*	*	*	*	*	*	*	*	*	*	*	*
=78	=78	=78	=78	=78	=78	=78	=78	=78	=78	=78	=78	=78	=78	=78	=78	=78	=78	=78	=78	=78
16G\LL	.	16dd/LL	Chry-	.	8b\	.	8ryy	.	.	.	.	.	(16dd\LL	.	2G/	2g\	2bb\	.	2ddd\yy	.
16d\	.	16b/JJ	.	.	.	.	.	.	.	.	.	.	16b\JJ)	.	.	.	.	.	.	.
16B\	.	8g/	-ste	.	8r	.	8dd\yy	.	.	.	.	.	8g\	-ste	.	.	.	.	.	.
16d\JJ	.	.	.	.	.	.	.	.	.	.	.	.	.	.	.	.	.	.	.	.
8G\L	.	16r	.	.	8b\	.	8ryy	.	.	.	.	.	4r	.	.	.	.	.	.	.
.	.	16g/LL	Je-	.	.	.	.	.	.	.	.	.	.	.	.	.	.	.	.	.
8G\J	.	16b/	.	.	8r	.	8dd\yy	.	.	.	.	.	.	.	.	.	.	.	.	.
.	.	16dd/JJ	.	.	.	.	.	.	.	.	.	.	.	.	.	.	.	.	.	.
=79	=79	=79	=79	=79	=79	=79	=79	=79	=79	=79	=79	=79	=79	=79	=79	=79	=79	=79	=79	=79
!	!	!	!	!	!LO:TX:a:t=1.	!	!LO:TX:a:t=1.	!	!	!	!	!	!	!	!	!	!	!	!	!
8A\L	.	16dd/LL	-su	.	2r	.	2r	.	1r	.	1r	.	(16dd\LL	Je-	4d/	4a\	4aa\	.	4ccc\	.
.	.	16cc/	.	.	.	.	.	.	.	.	.	.	16cc\JJ)	.	.	.	.	.	.	.
8F#\J	.	16a/	.	.	.	.	.	.	.	.	.	.	(16a\LL	-su	.	.	.	.	.	.
.	.	16cc/JJ	.	.	.	.	.	.	.	.	.	.	16cc\JJ)	.	.	.	.	.	.	.
!LO:TX:t=P:problem:mixed beam	!	!	!	!	!	!	!	!	!	!	!	!	!	!	!	!	!	!	!	!
8G\L	.	16cc/LL	Chry-	.	.	.	.	.	.	.	.	.	(16cc\LL	Chry-	4g\	4b\	4gg\	.	4bb\	.
.	.	16b/	.	.	.	.	.	.	.	.	.	.	16b\JJ)	.	.	.	.	.	.	.
8C#/J	.	16g/	.	.	.	.	.	.	.	.	.	.	(16g\LL	.	.	.	.	.	.	.
.	.	16b/JJ	.	.	.	.	.	.	.	.	.	.	16b\JJ)	.	.	.	.	.	.	.
=80	=80	=80	=80	=80	=80	=80	=80	=80	=80	=80	=80	=80	=80	=80	=80	=80	=80	=80	=80	=80
!LO:TX:t=P:problem:mixed beam	!	!	!	!	!	!	!	!	!	!	!	!	!	!	!	!	!	!	!	!
16D/LL	.	4b 4g/	.	.	8r	.	8r	.	.	.	.	.	4a\	-ste	8r	8r	8ff#\	.	8aa\	.
16d\	.	.	.	.	.	.	.	.	.	.	.	.	.	.	.	.	.	.	.	.
16c#\	.	.	.	.	16d/LL	.	16d/LL	.	.	.	.	.	.	.	16.d/LL	16.a\LL	8r	.	8r	.
16d\JJ	.	.	.	.	16d/JJ	.	16d/JJ	.	.	.	.	.	.	.	.	.	.	.	.	.
.	.	.	.	.	.	.	.	.	.	.	.	.	.	.	32d/JJk	32a\JJk	.	.	.	.
!LO:TX:t=P:problem:mixed beam	!	!	!	!	!	!	!	!	!	!	!	!	!	!	!	!	!	!	!	!
8D/L	.	8a 8f#/	-ste	.	8d/	.	4d/	.	.	.	.	.	4r	.	8d/	8a\	4r	.	4r	.
8d\J	.	8r	.	.	8r	.	.	.	.	.	.	.	.	.	8r	8ryy	.	.	.	.
=81	=81	=81	=81	=81	=81	=81	=81	=81	=81	=81	=81	=81	=81	=81	=81	=81	=81	=81	=81	=81
*tremolo	*	*	*	*	*	*	*	*	*	*	*	*	*	*	*	*	*	*	*	*
*2\right	*	*	*	*	*	*	*	*	*	*	*	*	*	*	*	*	*	*	*	*
!LO:TX:a:t=P:problem:złe wyświetlanie wartości rytmicznej tremolo w tt. 81-82	!	!	!	!	!	!	!	!	!	!	!	!	!	!	!	!	!	!	!	!
!LO:N:TREM:vis=2.	!	!	!	!	!	!	!	!	!	!	!	!	!	!	!	!	!	!	!	!
!LO:TX:t=P:problem:mixed beam	!	!	!	!LO:DY:a:t=forte	!	!	!	!LO:DY:b	!	!	!	!	!	!	!	!	!	!LO:DY:a:t=forte	!	!LO:DY:a:rj:t=forte
8D/L	.	8.aL 8.f#/	Cum	f	8.e/L	.	8a/L	p	4D\	Cum	(8.f#\L	cum	8.a\L	cum	4d/	4a\	8.ff#\L	f	8.aa\L	f
8d\	.	.	.	.	.	.	8b/J	.	.	.	.	.	.	.	.	.	.	.	.	.
.	.	16bJk 16g/	.	.	16f#/Jk	.	.	.	.	.	16g\Jk)	.	16b\Jk	.	.	.	16gg\Jk	.	16bb\Jk	.
!	!	!	!	!	!	!LO:DY:b:t=po	!	!	!	!	!	!	!	!	!	!	!	!	!	!
8D/	.	8cc 8a/	San-	.	8a/L	p	8cc\L	.	8d\	San-	8a\|	San-	8cc\	San-	4r	4r	8aa\L	.	8ccc\L	.
8d\J	.	8cc 8a/	-cto	.	8a/J	.	8cc\J	.	8d\	-cto	8a\|	-cto	8cc\	-cto	.	.	8aa\J	.	8ccc\J	.
!LO:LB:g=original	!	!LO:LB:g=original	!	!	!	!	!	!	!	!	!	!	!	!	!	!	!	!	!	!
=82	=82	=82	=82	=82	=82	=82	=82	=82	=82	=82	=82	=82	=82	=82	=82	=82	=82	=82	=82	=82
!LO:N:TREM:vis=2.	!	!	!	!	!	!	!	!	!	!	!	!	!	!	!	!	!	!	!	!
!LO:TX:t=P:problem:mixed beam	!	!	!	!	!	!	!	!	!	!	!	!	!	!	!	!	!	!	!	!
8D/L	.	16ccLL 16a/	spi-	.	16a/LL	.	16cc\LL	.	8d\	spi-	(16a\LL	spi-	(16cc\LL	spi-	8r	8r	16aa\LL	.	16ccc\LL	.
.	.	16ddJJ 16b/	.	.	16b/	.	16dd\	.	.	.	16b\JJ)	.	16dd\JJ)	.	.	.	16bb\	.	16ddd\	.
!	!	!	!	!	!	!	!	!	!	!	!	!	!	!	!LO:TX:b:t=g	!	!	!	!	!
8d\	.	16ccLL 16a/	-ri-	.	16a/	.	16cc\	.	8d\	-ri-	(16a\LL	-ri-	(16cc\LL	-ri-	16.d/LL	16.a\LL	16aa\	.	16ccc\	.
.	.	16bJJ 16g/	.	.	16g/JJ	.	16b\JJ	.	.	.	16g\JJ)	.	16b\JJ)	.	.	.	16gg\JJ	.	16bb\JJ	.
.	.	.	.	.	.	.	.	.	.	.	.	.	.	.	32d/JJk	32a\JJk	.	.	.	.
!	!	!	!	!	!LO:TX:b:i:t=Verte cito	!	!LO:TX:b:i:t=Verte cito	!	!	!	!	!	!	!	!	!	!	!	!	!
8D/	.	8a 8f#/	-tu	.	4f#/	.	4a/	.	4d\	-tu	8f#\	-tu	8a\	-tu	8d/	8a\	4ff#\	.	4aa\	.
8d\J	.	8r	.	.	.	.	.	.	.	.	8r	.	8r	.	8r	8r	.	.	.	.
!	!	!	!	!	!LO:PB:g=original	!	!LO:PB:g=original	!	!	!	!LO:LB:g=original	!	!	!	!	!	!	!	!	!
=83	=83	=83	=83	=83	=83	=83	=83	=83	=83	=83	=83	=83	=83	=83	=83	=83	=83	=83	=83	=83
!	!	!	!	!	!	!	!	!	!	!	!	!	!	!	!	!	!	!	!LO:TX:t=P:problem:na nucie plama	!
8G\L	.	8.bL 8.g/	Cum	.	8.g/L	.	8.b\L	.	4G\	Cum	8.g\L	cum	(8.b\L	cum	4g\	4b\	8.gg\L	.	8.bb\L	.
8G\	.	.	.	.	.	.	.	.	.	.	.	.	.	.	.	.	.	.	.	.
.	.	16ccJk 16a/	.	.	16a/Jk	.	16cc\Jk	.	.	.	16a\Jk	.	16cc\Jk)	.	.	.	16aa\Jk	.	16ccc\Jk	.
8G\	.	8ddL 8b/	San-	.	8b/L	.	8dd\L	.	8G\	san-	8b\	San-	8dd\|	San-	4r	4r	8bb\L	.	8ddd\L	.
8G\J	.	8ddJ 8b/	-cto	.	8b/J	.	8dd\J	.	8G\	-cto	8b\	-cto	8dd\|	-cto	.	.	8bb\J	.	8ddd\J	.
=84	=84	=84	=84	=84	=84	=84	=84	=84	=84	=84	=84	=84	=84	=84	=84	=84	=84	=84	=84	=84
8G\L	.	16ddLL 16b/	spi-	.	16b/LL	.	16dd\LL	.	8G\	spi-	(16b\LL	spi-	(16dd\LL	spi-	8r	8r	16bb\LL	.	16ddd\LL	.
.	.	16eeJJ 16cc/	.	.	16cc/	.	16ee\	.	.	.	16cc\JJ)	.	16ee\JJ)	.	.	.	16ccc\	.	16eee\	.
8G\	.	16ddLL 16b/	-ri-	.	16b/	.	16dd\	.	8G\	-ri-	(16b\LL	-ri-	(16dd\LL	-ri-	16.g\LL	16.b\LL	16bb\	.	16ddd\	.
.	.	16ccJJ 16a/	.	.	16a/JJ	.	16cc\JJ	.	.	.	16a\JJ)	.	16cc\JJ)	.	.	.	16aa\JJ	.	16ccc\JJ	.
.	.	.	.	.	.	.	.	.	.	.	.	.	.	.	32g\JJk	32b\JJk	.	.	.	.
!	!	!	!	!	!	!	!	!	!	!	!	!	!LO:LB:g=original	!	!	!	!	!	!	!
8G\	.	8b 8g/	-tu	.	8g/L	.	8b\L	.	8G\	-tu	8g\	-tu	8b\	-tu	8g\	8b\	4gg\	.	4bb\	.
8G\J	.	8dd 8b/	in	.	8b/J	.	8dd\J	.	8G\	in	8b\	in	8dd\	in	8r	8r	.	.	.	.
*Xtremolo	*	*	*	*	*	*	*	*	*	*	*	*	*	*	*	*	*	*	*	*
!	!	!	!	!	!	!	!	!	!	!	!	!	!	!	!	!LO:LB:g=original	!	!	!	!
=85	=85	=85	=85	=85	=85	=85	=85	=85	=85	=85	=85	=85	=85	=85	=85	=85	=85	=85	=85	=85
!	!	!	!	!	!	!	!	!	!	!	!	!	!	!	!LO:TX:a:t=2	!LO:TX:a:t=2	!LO:TX:a:t=3	!	!LO:TX:a:t=3	!
2c 2C\	.	8ee/	Glo-	.	8cc\	.	8ee\	.	8c\	glo-	8cc\	glo-	8ee\	glo-	1r	1r	1r	.	1r	.
.	.	16ee/	-ri-	.	8r	.	8r	.	16c\	-ri-	16cc\	-ri-	16cc\	-ri-	.	.	.	.	.	.
.	.	16cc/	-a	.	.	.	.	.	16c\	-a	16a\	-a	16cc\	-a	.	.	.	.	.	.
.	.	8gg 8ee/	De-	.	8cc\	.	8ee\	.	8d\	De-	8ee\	De-	8gg\	De-	.	.	.	.	.	.
.	.	8ee 8cc/	-i	.	8r	.	8r	.	8D/	-i	8cc\	-i	8ee\	-i	.	.	.	.	.	.
=86	=86	=86	=86	=86	=86	=86	=86	=86	=86	=86	=86	=86	=86	=86	=86	=86	=86	=86	=86	=86
2G 2GG/	.	8dd 8b/	Pa-	.	8b\	.	8dd\	.	8G\	pa-	8b\	pa-	8dd\	Pa-	.	.	.	.	.	.
.	.	16ddLL 16b/	-tris	.	8r	.	8r	.	8G\	-tris	(16b\LL	-tris	8b\	-tris	.	.	.	.	.	.
.	.	16bJJ 16g/	.	.	.	.	.	.	.	.	16g\JJ)	.	.	.	.	.	.	.	.	.
.	.	8gg 8b/	a-	.	8b\	.	8dd\	.	8G\	a-	8b\	a-	8gg\	a-	.	.	.	.	.	.
.	.	8dd 8b/	-men	.	8r	.	8r	.	8G\	-men	8b\	-men	8dd\	-men	.	.	.	.	.	.
!	!	!	!	!	!	!	!	!	!LO:LB:g=original	!	!	!	!	!	!	!	!	!	!	!
=87	=87	=87	=87	=87	=87	=87	=87	=87	=87	=87	=87	=87	=87	=87	=87	=87	=87	=87	=87	=87
!LO:TX:t=P:problem:mixed beam	!	!	!	!	!	!	!	!	!	!	!	!	!	!	!	!	!	!	!	!
8G\L	.	8dd 8b/	a-	.	8b\L	.	8dd\L	.	8G\L	a-	8b\|L	a-	8dd\|L	a-	8r	8r	2r	.	2r	.
8c\	.	16eeLL 16cc/	.	.	16cc\L	.	16ee\L	.	8c\J	.	(16cc\L	.	(16ee\L	.	(8a\L	8cc\|L	.	.	.	.
.	.	16ccJJ 16a/	.	.	16a\JJ	.	16cc\JJ	.	.	.	16a\JJ)	.	16cc\JJ)	.	.	.	.	.	.	.
!	!	!	!	!	!	!	!LO:TX:t=P:problem:mixed beam	!	!LO:TX:t=P:problem:mixed beam	!	!	!	!	!	!	!	!	!	!	!
8d\	.	8bL 8g/	-a-	.	8g/L	.	8b\L	.	8d\L	.	8g/L	-men	(8b\L	.	8g\)	(8b\	.	.	.	.
8D/J	.	8aJ 8f#/	-men.	.	8f#/J	.	8a/J	.	8D/J	.	8f#/J	.	8a\J)	.	8d\J	8a\J)	.	.	.	.
!LO:LB:g=original	!	!LO:LB:g=original	!	!	!	!	!	!	!	!	!LO:LB:g=original	!	!	!	!LO:LB:g=original	!	!LO:LB:g=original	!	!	!
=88	=88	=88	=88	=88	=88	=88	=88	=88	=88	=88	=88	=88	=88	=88	=88	=88	=88	=88	=88	=88
!	!	!:	!	!LO:DY:a:t=Pia&colon;	!	!LO:DY:b:t=po.	!	!LO:DY:a:t=Piano	!	!	!	!	!	!	!	!	!	!LO:DY:a:t=Piano	!	!LO:DY:a:t=Pia
16BLL 16G\	.	16b\KL	.	p	2g/	p	2b/	p	4G\	-men	4d/	men	4g\	-men	8g\	8b\	2gg\	p	2ddd\	p
16d\	.	8dd\	.	.	.	.	.	.	.	.	.	.	.	.	.	.	.	.	.	.
16G\	.	.	.	.	.	.	.	.	.	.	.	.	.	.	8r	8r	.	.	.	.
!	!	!LO:TX:a:i:t=Solo	!	!	!	!	!	!	!	!	!	!	!	!	!	!	!	!	!	!
16d\JJ	.	8gg\	.	.	.	.	.	.	.	.	.	.	.	.	.	.	.	.	.	.
*rep	*	*	*	*	*	*	*	*	*	*	*	*	*	*	*	*	*	*	*	*
16BLL 16G\	.	.	.	.	.	.	.	.	4r	.	4r	.	4r	.	4r	4r	.	.	.	.
16d\	.	8bb\	.	.	.	.	.	.	.	.	.	.	.	.	.	.	.	.	.	.
16G\	.	.	.	.	.	.	.	.	.	.	.	.	.	.	.	.	.	.	.	.
!	!	!	!	!	!	!	!	!	!	!	!	!	!	!	!	!	!LO:TX:b:t=30	!	!	!
16d\JJ	.	16ddd\Jk	.	.	.	.	.	.	.	.	.	.	.	.	.	.	.	.	.	.
*Xrep	*	*	*	*	*	*	*	*	*	*	*	*	*	*	*	*	*	*	*	*
=89	=89	=89	=89	=89	=89	=89	=89	=89	=89	=89	=89	=89	=89	=89	=89	=89	=89	=89	=89	=89
!	!	!	!	!	!	!	!	!	!LO:TX:a:t=13	!	!LO:TX:a:t=13	!	!LO:TX:a:t=13	!	!LO:TX:a:t=13	!LO:TX:a:t=13	!	!	!	!
16cLL 16A\	.	32ccc\LLL	.	.	2f#/	.	2cc/	.	0r	.	0r	.	0r	.	0r	0r	2ff#\	.	2ddd\	.
.	.	32ddd\	.	.	.	.	.	.	.	.	.	.	.	.	.	.	.	.	.	.
16d\	.	32ccc\	.	.	.	.	.	.	.	.	.	.	.	.	.	.	.	.	.	.
.	.	32aa\JJJ	.	.	.	.	.	.	.	.	.	.	.	.	.	.	.	.	.	.
16c 16A\	.	32aa\LLL	.	.	.	.	.	.	.	.	.	.	.	.	.	.	.	.	.	.
.	.	32bb\	.	.	.	.	.	.	.	.	.	.	.	.	.	.	.	.	.	.
16d\JJ	.	32aa\	.	.	.	.	.	.	.	.	.	.	.	.	.	.	.	.	.	.
.	.	32ff#\JJJ	.	.	.	.	.	.	.	.	.	.	.	.	.	.	.	.	.	.
*rep	*	*	*	*	*	*	*	*	*	*	*	*	*	*	*	*	*	*	*	*
16cLL 16A\	.	32ff#\LLL	.	.	.	.	.	.	.	.	.	.	.	.	.	.	.	.	.	.
.	.	32gg\	.	.	.	.	.	.	.	.	.	.	.	.	.	.	.	.	.	.
16d\	.	32ff#\	.	.	.	.	.	.	.	.	.	.	.	.	.	.	.	.	.	.
.	.	32dd\JJJ	.	.	.	.	.	.	.	.	.	.	.	.	.	.	.	.	.	.
16c 16A\	.	32cc\LLL	.	.	.	.	.	.	.	.	.	.	.	.	.	.	.	.	.	.
.	.	32dd\	.	.	.	.	.	.	.	.	.	.	.	.	.	.	.	.	.	.
16d\JJ	.	32cc\	.	.	.	.	.	.	.	.	.	.	.	.	.	.	.	.	.	.
.	.	32a\JJJ	.	.	.	.	.	.	.	.	.	.	.	.	.	.	.	.	.	.
*Xrep	*	*	*	*	*	*	*	*	*	*	*	*	*	*	*	*	*	*	*	*
!	!	!	!	!	!	!	!	!	!	!	!	!	!	!	!	!	!	!	!LO:LB:g=original	!
=90	=90	=90	=90	=90	=90	=90	=90	=90	=90	=90	=90	=90	=90	=90	=90	=90	=90	=90	=90	=90
!	!	!	!	!	!	!	!LO:TX:t=P:problem:takty 90-91 zapisane repetycją	!	!	!	!	!	!	!	!	!	!	!	!	!
16BLL 16G\	.	16b\KL	.	.	2g/	.	2b/yy	.	.	.	.	.	.	.	.	.	2gg\	.	2ddd\	.
16d\	.	8dd\	.	.	.	.	.	.	.	.	.	.	.	.	.	.	.	.	.	.
16B 16G\	.	.	.	.	.	.	.	.	.	.	.	.	.	.	.	.	.	.	.	.
16d\JJ	.	8gg\	.	.	.	.	.	.	.	.	.	.	.	.	.	.	.	.	.	.
*rep	*	*	*	*	*	*	*	*	*	*	*	*	*	*	*	*	*	*	*	*
16BLL 16G\	.	.	.	.	.	.	.	.	.	.	.	.	.	.	.	.	.	.	.	.
16d\	.	8bb\	.	.	.	.	.	.	.	.	.	.	.	.	.	.	.	.	.	.
16B 16G\	.	.	.	.	.	.	.	.	.	.	.	.	.	.	.	.	.	.	.	.
!	!	!LO:TX:b:t=30	!	!	!	!	!	!	!	!	!	!	!	!	!	!	!	!	!LO:TX:a:t=30	!
16d\JJ	.	16ddd\Jk	.	.	.	.	.	.	.	.	.	.	.	.	.	.	.	.	.	.
*Xrep	*	*	*	*	*	*	*	*	*	*	*	*	*	*	*	*	*	*	*	*
=91	=91	=91	=91	=91	=91	=91	=91	=91	=91	=91	=91	=91	=91	=91	=91	=91	=91	=91	=91	=91
16cLL 16A\	.	32ccc\LLL	.	.	2f#/	.	2cc/yy	.	.	.	.	.	.	.	.	.	2ff#\	.	2ddd\	.
.	.	32ddd\	.	.	.	.	.	.	.	.	.	.	.	.	.	.	.	.	.	.
16d\	.	32ccc\	.	.	.	.	.	.	.	.	.	.	.	.	.	.	.	.	.	.
.	.	32aa\JJJ	.	.	.	.	.	.	.	.	.	.	.	.	.	.	.	.	.	.
16c 16A\	.	32aa\LLL	.	.	.	.	.	.	.	.	.	.	.	.	.	.	.	.	.	.
.	.	32bb\	.	.	.	.	.	.	.	.	.	.	.	.	.	.	.	.	.	.
16d\JJ	.	32aa\	.	.	.	.	.	.	.	.	.	.	.	.	.	.	.	.	.	.
.	.	32ff#\JJJ	.	.	.	.	.	.	.	.	.	.	.	.	.	.	.	.	.	.
*rep	*	*	*	*	*	*	*	*	*	*	*	*	*	*	*	*	*	*	*	*
16cLL 16A\	.	32ff#\LLL	.	.	.	.	.	.	.	.	.	.	.	.	.	.	.	.	.	.
.	.	32gg\	.	.	.	.	.	.	.	.	.	.	.	.	.	.	.	.	.	.
16d\	.	32ff#\	.	.	.	.	.	.	.	.	.	.	.	.	.	.	.	.	.	.
.	.	32dd\JJJ	.	.	.	.	.	.	.	.	.	.	.	.	.	.	.	.	.	.
16c 16A\	.	32cc/LLL	.	.	.	.	.	.	.	.	.	.	.	.	.	.	.	.	.	.
.	.	32dd/	.	.	.	.	.	.	.	.	.	.	.	.	.	.	.	.	.	.
16d\JJ	.	32cc/	.	.	.	.	.	.	.	.	.	.	.	.	.	.	.	.	.	.
.	.	32a/JJJ	.	.	.	.	.	.	.	.	.	.	.	.	.	.	.	.	.	.
*Xrep	*	*	*	*	*	*	*	*	*	*	*	*	*	*	*	*	*	*	*	*
!LO:LB:g=original	!	!LO:LB:g=original	!	!	!	!	!	!	!	!	!	!	!	!	!	!	!	!	!	!
=92	=92	=92	=92	=92	=92	=92	=92	=92	=92	=92	=92	=92	=92	=92	=92	=92	=92	=92	=92	=92
!	!	!	!	!	!	!LO:DY:b:t=forte	!	!LO:DY:a:t=for	!	!	!	!	!	!	!	!	!	!LO:DY:b:t=forte	!	!LO:DY:a:t=forte
16G\LL	.	16b/LL	.	.	16g/LL	f	16b\LL	f	.	.	.	.	.	.	.	.	8gg\	f	8bb\	f
16A\	.	16cc/	.	.	16a/	.	16cc\	.	.	.	.	.	.	.	.	.	.	.	.	.
16B\	.	16dd/	.	.	16b/	.	16dd\	.	.	.	.	.	.	.	.	.	8r	.	8r	.
16G\JJ	.	16b/JJ	.	.	16g/JJ	.	16b\JJ	.	.	.	.	.	.	.	.	.	.	.	.	.
16c\LL	.	16ee\LL	.	.	16cc/LL	.	16ee\LL	.	.	.	.	.	.	.	.	.	8ccc\	.	8eee\	.
16d\	.	16ff#\	.	.	16dd/	.	16ff#\	.	.	.	.	.	.	.	.	.	.	.	.	.
16e\	.	16gg\	.	.	16ee/	.	16gg\	.	.	.	.	.	.	.	.	.	8r	.	8r	.
!	!	!	!	!	!	!	!LO:TX:a:t=30:skreslone	!	!	!	!	!	!	!	!	!	!	!	!	!
16c\JJ	.	16ee\JJ	.	.	16cc/JJ	.	16ee\JJ	.	.	.	.	.	.	.	.	.	.	.	.	.
=93	=93	=93	=93	=93	=93	=93	=93	=93	=93	=93	=93	=93	=93	=93	=93	=93	=93	=93	=93	=93
16B\LL	.	16dd/LL	.	.	16b/LL	.	16dd\LL	.	0r	.	0r	.	0r	.	0r	0r	8bb\	.	8ddd\	.
16A\	.	16cc/	.	.	16a/	.	16cc\	.	.	.	.	.	.	.	.	.	.	.	.	.
16G\	.	16b/	.	.	16g/	.	16b\	.	.	.	.	.	.	.	.	.	8r	.	8r	.
16B\JJ	.	16dd/JJ	.	.	16b/JJ	.	16dd\JJ	.	.	.	.	.	.	.	.	.	.	.	.	.
16A\LL	.	16cc/LL	.	.	16cc\LL	.	16cc\LL	.	.	.	.	.	.	.	.	.	8aa\	.	8ccc\	.
16G\	.	16b/	.	.	16b\	.	16b\	.	.	.	.	.	.	.	.	.	.	.	.	.
16F#\	.	16a/	.	.	16a\	.	16a\	.	.	.	.	.	.	.	.	.	8r	.	8r	.
16A\JJ	.	16cc/JJ	.	.	16cc\JJ	.	16cc\JJ	.	.	.	.	.	.	.	.	.	.	.	.	.
=94	=94	=94	=94	=94	=94	=94	=94	=94	=94	=94	=94	=94	=94	=94	=94	=94	=94	=94	=94	=94
!	!	!	!	!	!	!	!LO:TX:t=P:problem:takty 94-95 zapisane repetycją	!	!	!	!	!	!	!	!	!	!LO:TX:t=P:problem:takty 94-95 zapisane repetycją	!	!	!
16G\LL	.	16b/LL	.	.	16g/LL	.	16b\LLyy	.	.	.	.	.	.	.	.	.	8gg\yy	.	8bb\	.
16A\	.	16cc/	.	.	16a/	.	16cc\yy	.	.	.	.	.	.	.	.	.	.	.	.	.
16B\	.	16dd/	.	.	16b/	.	16dd\yy	.	.	.	.	.	.	.	.	.	8ryy	.	8r	.
16G\JJ	.	16b/JJ	.	.	16g/JJ	.	16b\JJyy	.	.	.	.	.	.	.	.	.	.	.	.	.
!	!	!	!	!	!LO:LB:g=original	!	!	!	!	!	!	!	!	!	!	!	!	!	!	!
16c\LL	.	16ee\LL	.	.	16cc\LL	.	16ee\LLyy	.	.	.	.	.	.	.	.	.	8ccc\yy	.	8ccc\	.
16d\	.	16ff#\	.	.	16dd\	.	16ff#\yy	.	.	.	.	.	.	.	.	.	.	.	.	.
16e\	.	16gg\	.	.	16ee\	.	16gg\yy	.	.	.	.	.	.	.	.	.	8ryy	.	8r	.
16c\JJ	.	16ee\JJ	.	.	16cc\JJ	.	16ee\JJyy	.	.	.	.	.	.	.	.	.	.	.	.	.
=95	=95	=95	=95	=95	=95	=95	=95	=95	=95	=95	=95	=95	=95	=95	=95	=95	=95	=95	=95	=95
16BLL 16G\	.	16dd/LL	.	.	16b\LL	.	16dd\LLyy	.	.	.	.	.	.	.	.	.	8bb\yy	.	8ddd\	.
16A 16F#\	.	16cc/	.	.	16a\	.	16cc\yy	.	.	.	.	.	.	.	.	.	.	.	.	.
16G 16E\	.	16b/	.	.	16g\	.	16b\yy	.	.	.	.	.	.	.	.	.	8ryy	.	8r	.
16BJJ 16G\	.	16dd/JJ	.	.	16b\JJ	.	16dd\JJyy	.	.	.	.	.	.	.	.	.	.	.	.	.
16ALL 16F#\	.	16cc/LL	.	.	16a/LL	.	16cc\LLyy	.	.	.	.	.	.	.	.	.	8aa\yy	.	8ccc\	.
16G 16E\	.	16b/	.	.	16g/	.	16b\yy	.	.	.	.	.	.	.	.	.	.	.	.	.
16F# 16D\	.	16a/	.	.	16f#/	.	16a\yy	.	.	.	.	.	.	.	.	.	8ryy	.	8r	.
16AJJ 16F#\	.	16cc/JJ	.	.	16a/JJ	.	16cc\JJyy	.	.	.	.	.	.	.	.	.	.	.	.	.
=96	=96	=96	=96	=96	=96	=96	=96	=96	=96	=96	=96	=96	=96	=96	=96	=96	=96	=96	=96	=96
!	!	!	!	!	!	!	!	!	!	!	!	!	!	!	!	!	!	!LO:DY:a:t=Piano	!	!LO:DY:a:rj:t=Pia
16G\LL	.	16b\LL	.	.	16g/LL	.	16b\LL	.	.	.	.	.	.	.	.	.	2ffn\	p	2bb\	p
16A\	.	16cc\	.	.	16a/	.	16cc\	.	.	.	.	.	.	.	.	.	.	.	.	.
16B\	.	16dd\	.	.	16b/	.	16dd\	.	.	.	.	.	.	.	.	.	.	.	.	.
16c\JJ	.	16ee\JJ	.	.	16cc/JJ	.	16ee\JJ	.	.	.	.	.	.	.	.	.	.	.	.	.
16d\LL	.	16ffX\LL	.	.	16dd/LL	.	16ffn\LL	.	.	.	.	.	.	.	.	.	.	.	.	.
16c\	.	16ee\	.	.	16cc/	.	16ee\	.	.	.	.	.	.	.	.	.	.	.	.	.
16d\	.	16ff\	.	.	16dd/	.	16ff\	.	.	.	.	.	.	.	.	.	.	.	.	.
16B\JJ	.	16dd\JJ	.	.	16b/JJ	.	16dd\JJ	.	.	.	.	.	.	.	.	.	.	.	.	.
!	!	!	!	!	!	!	!LO:LB:g=original	!	!	!	!	!	!	!	!	!	!	!	!	!
=97	=97	=97	=97	=97	=97	=97	=97	=97	=97	=97	=97	=97	=97	=97	=97	=97	=97	=97	=97	=97
16c\LL	.	16ee\LL	.	.	16cc\LL	.	16ee\LL	.	0r	.	0r	.	0r	.	0r	0r	4ee\	.	4ccc\	.
16e\	.	16cc\	.	.	16e\	.	16cc\	.	.	.	.	.	.	.	.	.	.	.	.	.
16fX\	.	16dd\	.	.	16f#\	.	16ee\	.	.	.	.	.	.	.	.	.	.	.	.	.
16d\JJ	.	16b\JJ	.	.	16d\JJ	.	16b\JJ	.	.	.	.	.	.	.	.	.	.	.	.	.
16e\LL	.	16cc\LL	.	.	16e/LL	.	16cc\LL	.	.	.	.	.	.	.	.	.	4r	.	4r	.
16g\J	.	16ee\J	.	.	16g/J	.	16ee\J	.	.	.	.	.	.	.	.	.	.	.	.	.
8e\J	.	8cc\J	.	.	8e/J	.	8cc\J	.	.	.	.	.	.	.	.	.	.	.	.	.
!LO:LB:g=original	!	!LO:LB:g=original	!	!	!	!	!	!	!	!	!	!	!	!	!	!	!	!	!	!
=98	=98	=98	=98	=98	=98	=98	=98	=98	=98	=98	=98	=98	=98	=98	=98	=98	=98	=98	=98	=98
16A\LL	.	16cc#\LL	.	.	16a\LL	.	16cc#X\LL	.	.	.	.	.	.	.	.	.	2gg\	.	2ccc#X\	.
16B\	.	16dd\	.	.	16b\	.	16dd\	.	.	.	.	.	.	.	.	.	.	.	.	.
16c#\	.	16ee\	.	.	16cc#X\	.	16ee\	.	.	.	.	.	.	.	.	.	.	.	.	.
16d\JJ	.	16ff#\JJ	.	.	16dd\JJ	.	16ff#\JJ	.	.	.	.	.	.	.	.	.	.	.	.	.
16e\LL	.	16gg\LL	.	.	16ee\LL	.	16gg\LL	.	.	.	.	.	.	.	.	.	.	.	.	.
16d\	.	16ff#\	.	.	16dd\	.	16ff#\	.	.	.	.	.	.	.	.	.	.	.	.	.
16e\	.	16gg\	.	.	16ee\	.	16gg\	.	.	.	.	.	.	.	.	.	.	.	.	.
16c#\JJ	.	16ee\JJ	.	.	16cc#\JJ	.	16ee\JJ	.	.	.	.	.	.	.	.	.	.	.	.	.
=99	=99	=99	=99	=99	=99	=99	=99	=99	=99	=99	=99	=99	=99	=99	=99	=99	=99	=99	=99	=99
!	!	!	!	!	!LO:TX:t=P:problem:mixed beam	!	!	!	!	!	!	!	!	!	!	!	!	!	!	!
16d\LL	.	16ff#\LL	.	.	8dd\L	.	16ff#\LL	.	.	.	.	.	.	.	.	.	4ff#X\	.	4ddd\	.
16f#\	.	16dd\	.	.	.	.	16dd\	.	.	.	.	.	.	.	.	.	.	.	.	.
*	*	*	*	*	*Xtuplet	*	*	*	*	*	*	*	*	*	*	*	*	*	*	*
16g\	.	16ee\	.	.	24e/L	.	16ee\	.	.	.	.	.	.	.	.	.	.	.	.	.
.	.	.	.	.	24g/	.	.	.	.	.	.	.	.	.	.	.	.	.	.	.
16e\JJ	.	16cc\JJ	.	.	.	.	16cc\JJ	.	.	.	.	.	.	.	.	.	.	.	.	.
.	.	.	.	.	24e/JJ	.	.	.	.	.	.	.	.	.	.	.	.	.	.	.
16f#\LL	.	16dd\LL	.	.	16f#/LL	.	16dd\LL	.	.	.	.	.	.	.	.	.	4r	.	4r	.
16a\J	.	16ff#\J	.	.	16a/J	.	16ff#\J	.	.	.	.	.	.	.	.	.	.	.	.	.
8f#\J	.	8dd\J	.	.	8f#/J	.	8dd\J	.	.	.	.	.	.	.	.	.	.	.	.	.
=100	=100	=100	=100	=100	=100	=100	=100	=100	=100	=100	=100	=100	=100	=100	=100	=100	=100	=100	=100	=100
*clefG2	*	*	*	*	*	*	*	*	*	*	*	*	*	*	*	*	*	*	*	*
16d/LL	.	16ff#\LL	.	.	16dd\LL	.	16ff#\LL	.	.	.	.	.	.	.	.	.	2ccc\	.	2fff#X\	.
!LO:TX:t=d	!	!	!	!	!	!	!	!	!	!	!	!	!	!	!	!	!	!	!	!
16e/	.	16gg\	.	.	16ee\	.	16gg\	.	.	.	.	.	.	.	.	.	.	.	.	.
!LO:TX:t=e	!	!	!	!	!	!	!	!	!	!	!	!	!	!	!	!	!	!	!	!
16f#/	.	16aa\	.	.	16ff#\	.	16aa\	.	.	.	.	.	.	.	.	.	.	.	.	.
!LO:TX:t=f	!	!	!	!	!	!	!	!	!	!	!	!	!	!	!	!	!	!	!	!
16g/JJ	.	16bb\JJ	.	.	16gg\JJ	.	16bb\JJ	.	.	.	.	.	.	.	.	.	.	.	.	.
16a/LL	.	16ccc\LL	.	.	16aa\LL	.	16ccc\LL	.	.	.	.	.	.	.	.	.	.	.	.	.
16g/	.	16bb\	.	.	16gg\	.	16bb\	.	.	.	.	.	.	.	.	.	.	.	.	.
16a/	.	16ccc\	.	.	16aa\	.	16ccc\	.	.	.	.	.	.	.	.	.	.	.	.	.
!	!	!LO:TX:a:t=g	!	!	!	!	!	!	!	!	!	!	!	!	!	!	!	!	!	!
!	!	!LO:TX:b:t=g	!	!	!	!	!	!	!	!	!	!	!	!	!	!	!	!	!	!
16f#/JJ	.	16aa\JJ	.	.	16ff#\JJ	.	16bb\JJ	.	.	.	.	.	.	.	.	.	.	.	.	.
!	!	!	!	!	!LO:LB:g=original	!	!	!	!	!	!	!	!	!	!	!	!	!	!	!
=101	=101	=101	=101	=101	=101	=101	=101	=101	=101	=101	=101	=101	=101	=101	=101	=101	=101	=101	=101	=101
16g/LL	.	16bb\LL	.	.	16gg\LL	.	16bb\LL	.	2r	.	2r	.	2r	.	2r	2r	4bb\	.	4ggg\	.
16b/	.	16gg\	.	.	16b\	.	16gg\	.	.	.	.	.	.	.	.	.	.	.	.	.
16cc/	.	16aa\	.	.	16cc\	.	16aa\	.	.	.	.	.	.	.	.	.	.	.	.	.
16a/JJ	.	16ff#\JJ	.	.	16a\JJ	.	16ff#\JJ	.	.	.	.	.	.	.	.	.	.	.	.	.
16b/LL	.	16gg\LL	.	.	16b\LL	.	16gg\LL	.	.	.	.	.	.	.	.	.	4r	.	4r	.
16dd/J	.	16bb\J	.	.	16dd\J	.	16bb\J	.	.	.	.	.	.	.	.	.	.	.	.	.
8b/J	.	8gg\J	.	.	8b\J	.	8gg\J	.	.	.	.	.	.	.	.	.	.	.	.	.
=102	=102	=102	=102	=102	=102	=102	=102	=102	=102	=102	=102	=102	=102	=102	=102	=102	=102	=102	=102	=102
*	*	*	*	*^	*	*	*	*	*	*	*	*	*	*	*	*	*	*	*	*
*clefF4	*	*	*	*	*	*	*	*	*	*	*	*	*	*	*	*	*	*	*	*	*
!	!	!	!	!LO:DY:a:rj:t=for	!LO:DY:b:rj:t=forte	!	!	!	!LO:DY:b:rj:t=forte.	!	!	!	!	!	!	!	!	!	!LO:DY:a:t=forte	!	!LO:DY:a:t=forte
16f#\LL	.	16cccLL 16aa 16dd\	.	f	f	16aa\LL	.	16cccLL 16dd\	f	16F#\	Cum	16a\	cum	16cc\	Cum	8r	8r	8aa\L	f	8fff#\L	f
16f#\J	.	16cccJ 16aa 16dd\	.	.	.	16aa\J	.	16cccJ 16dd\	.	16F#\	San-	16a\	San-	16cc\	San-	.	.	.	.	.	.
8f#\J	.	8cccJ 8aa 8dd\	.	.	.	8aa\J	.	8cccJ 8dd\	.	8F#\	-cto	8a\	-cto	8cc\	-cto	8d/	8a\	8aa\	.	8fff#\	.
16g\LL	.	16bbLL 16gg 16dd\	.	.	.	16gg\LL	.	16bbLL 16dd\	.	16G\	spi-	16g\	spi-	16b\	Spi-	8r	8r	8bb\	.	8ggg\	.
16g\J	.	16bbJ 16gg 16dd\	.	.	.	16gg\J	.	16bbJ 16dd\	.	16G\	-ri-	16g\	-ri-	16b\	-ri-	.	.	.	.	.	.
8g\J	.	8bbJ 8gg 8dd\	.	.	.	8gg\J	.	8bbJ 8dd\	.	8G\	-tu	8g\	-tu	8b\	-tu	8g\	8b\	8bb\J	.	8ggg\J	.
*	*	*	*	*v	*v	*	*	*	*	*	*	*	*	*	*	*	*	*	*	*	*
!	!	!	!	!	!	!	!	!	!	!	!	!	!LO:LB:g=original	!	!	!	!	!	!	!
=103	=103	=103	=103	=103	=103	=103	=103	=103	=103	=103	=103	=103	=103	=103	=103	=103	=103	=103	=103	=103
16c\LL	.	16ggLL 16ee\	.	.	16ee\LL	.	16aa\LL	.	16c\	in	16e/	in	16a\	in	8r	8r	8bb\L	.	8ccc\L	.
16c\J	.	16ggJ 16ee\	.	.	16ee\J	.	16aa\J	.	16c\	glo-	16e/	glo-	16a\	glo-	.	.	.	.	.	.
8c\J	.	8ggJ 8ee\	.	.	8ee\J	.	8aa\J	.	16c\	-ri-	16e/	-ri-	16a\	-ri-	8d/	8a\	8aa\	.	8ccc\	.
.	.	.	.	.	.	.	.	.	16c\	-a	16e/	-a	16a\	-a	.	.	.	.	.	.
16B\LL	.	16ff#LL 16dd\	.	.	16dd\LL	.	16gg\LL	.	8B\	De-	8d/	De-	8g\	De-	8r	8r	8gg\	.	8bb\	.
16B\J	.	16ff#J 16dd\	.	.	16dd\J	.	16gg\J	.	.	.	.	.	.	.	.	.	.	.	.	.
8B\J	.	8ff#J 8dd\	.	.	8dd\J	.	8gg\J	.	8B\	-i	8d/	-i	8g\	-i	8B/	8g\	8gg\J	.	8bb\J	.
!LO:LB:g=original	!	!LO:LB:g=original	!	!	!	!	!LO:LB:g=original	!	!	!	!	!	!	!	!	!	!LO:LB:g=original	!	!LO:LB:g=original	!
=104	=104	=104	=104	=104	=104	=104	=104	=104	=104	=104	=104	=104	=104	=104	=104	=104	=104	=104	=104	=104
16f#\LL	.	16cccLL 16aa\	.	.	16aa\LL	.	16cccLL 16dd\	.	8F#\	pa-	8a\	pa-	8cc\	Pa-	8r	8r	8aa\L	.	8fff#\L	.
16f#\J	.	16cccJ 16aa\	.	.	16aa\J	.	16cccJ 16dd\	.	.	.	.	.	.	.	.	.	.	.	.	.
8f#\J	.	8cccJ 8aa\	.	.	8aa\J	.	8cccJ 8dd\	.	8F#\	-tris	8a\	-tris	8cc\	-tris	8d/	8a\	8aa\	.	8fff#\	.
16g\LL	.	16bbLL 16gg\	.	.	16gg\LL	.	16bbLL 16dd\	.	8G\	a-	8g\	a-	8b\	a-	8r	8r	8bb\	.	8ggg\	.
16g\J	.	16bbJ 16gg\	.	.	16gg\J	.	16bbJ 16dd\	.	.	.	.	.	.	.	.	.	.	.	.	.
8g\J	.	8bbJ 8gg\	.	.	8gg\J	.	8bbJ 8dd\	.	8G\	-men	8g\	-men	8b\	-men	8g\	8b\	8bb\J	.	8ggg\J	.
!	!	!	!	!	!	!	!	!	!LO:LB:g=original	!	!	!	!	!	!	!	!	!	!	!
=105	=105	=105	=105	=105	=105	=105	=105	=105	=105	=105	=105	=105	=105	=105	=105	=105	=105	=105	=105	=105
*	*	*^	*	*	*	*	*	*	*	*	*	*	*	*	*	*	*	*	*	*
!LO:TX:t=P:problem:mixed beam	!	!	!	!	!	!	!	!	!	!	!	!	!	!	!	!	!	!	!	!	!
8c\L	.	16aa/LL	8ee\L	.	.	8ee\|L	.	8aa\L	.	4c\	a-	(16f#\LL	a-	(16a\LL	a-	4d/	8cc\|L	8aa\L	.	8ccc\L	.
.	.	16ccc/JJ	.	.	.	.	.	.	.	.	.	16a\)	.	16cc\)	.	.	.	.	.	.	.
*	*	*rep	*	*	*	*	*	*	*	*	*	*	*	*	*	*	*	*	*	*	*
8c\	.	16aa/LL	8ee\J	.	.	(16ee\L	.	8aa\	.	.	.	(16f#\	.	(16a\	.	.	8cc\|J	8aa\	.	8ccc\	.
.	.	16ccc/JJ	.	.	.	16cc\JJ)	.	.	.	.	.	16a\JJ)	.	16cc\JJ)	.	.	.	.	.	.	.
*	*	*Xrep	*	*	*	*	*	*	*	*	*	*	*	*	*	*	*	*	*	*	*
!	!	!	!	!	!	!	!	!	!	!LO:TX:t=P:problem:mixed beam	!	!	!	!	!	!	!	!	!	!	!
8d/	.	16ff#/LL	8dd\L	.	.	8a/L	.	8ff#\	.	8d\L	.	16d/LL	.	(16f#\LL	.	8d/L	8a\|L	8ff#\	.	8aa\	.
.	.	16aaJJ 16dd/	.	.	.	.	.	.	.	.	.	16f#/	.	16a\)	.	.	.	.	.	.	.
*	*	*rep	*	*	*	*	*	*	*	*	*	*	*	*	*	*	*	*	*	*	*
8D/J	.	16ff#/LL	8dd\J	.	.	8a/J	.	8ff#\J	.	8D/J	.	16d/	.	(16f#\	.	8d/J	8a\|J	8ff#\J	.	8aa\J	.
.	.	16aaJJ 16dd/	.	.	.	.	.	.	.	.	.	16f#/JJ	.	16a\JJ)	.	.	.	.	.	.	.
*	*	*Xrep	*	*	*	*	*	*	*	*	*	*	*	*	*	*	*	*	*	*	*
!	!	!	!	!	!	!	!	!	!	!	!	!LO:LB:g=original	!	!	!	!	!	!	!	!	!
=106	=106	=106	=106	=106	=106	=106	=106	=106	=106	=106	=106	=106	=106	=106	=106	=106	=106	=106	=106	=106	=106
8GL 8GG/	.	8gg/L	4dd\	.	.	8b/L	.	8gg\L	.	4G\	-men	4d/	-men	4g\	-men	8G/	8g\	8gg\L	.	8bb\L	.
8D/	.	16aa/L	.	.	.	16cc/L	.	16aa\L	.	.	.	.	.	.	.	8r	8r	8aa\	.	16ccc\L	.
.	.	16bb/JJ	.	.	.	16dd/JJ	.	16bb\JJ	.	.	.	.	.	.	.	.	.	.	.	16ddd\JJ	.
8G 8GG/	.	8gg/L	4dd\	.	.	8b/L	.	8gg\L	.	4G\	a-	4d/	a-	4g\	a-	8G/	8g\	8gg\	.	8bb\L	.
8D/J	.	16aa/L	.	.	.	16cc/L	.	16aa\L	.	.	.	.	.	.	.	8r	8r	8aa\J	.	16ccc\L	.
.	.	16bb/JJ	.	.	.	16dd/JJ	.	16bb\JJ	.	.	.	.	.	.	.	.	.	.	.	16ddd\JJ	.
*	*	*v	*v	*	*	*	*	*	*	*	*	*	*	*	*	*	*	*	*	*	*
!	!	!	!	!	!	!	!	!	!	!	!	!	!	!	!	!LO:LB:g=original	!	!	!	!
=107	=107	=107	=107	=107	=107	=107	=107	=107	=107	=107	=107	=107	=107	=107	=107	=107	=107	=107	=107	=107
!	!	!LO:TX:a:i:t=Tutti	!	!	!	!	!	!	!	!	!	!	!	!	!	!	!	!	!	!
8GL 8D 8GG/	.	8ggL 8dd 8b/	.	.	8b/L	.	8gg\L	.	8G\	-men	8d/	-men	8g\	-men	8G/L	8g\L	8gg\L	.	8bb\L	.
8G 8D 8GG/	.	8gg 8dd 8b/	.	.	8b/	.	8gg\J	.	8G\	a-	8dd\	a-	8gg\	a-	8G/	8g\	8gg\J	.	8bb\J	.
!	!	!	!	!	!	!	!LO:N:vis=4	!	!	!	!	!	!	!	!	!	!LO:TX:b:t=107 Taktów	!	!LO:TX:b:t=107	!
8GJ 8D 8GG/	.	8ggJ 8dd 8b/	.	.	8b/J	.	8gg\	.	8G\	-men.	8dd\	-men.	8gg\	-men.	8G/J	8g\J	4gg\	.	4bb\	.
!	!	!LO:TX:b:t=Taktów 107	!	!	!LO:TX:b:t=Taktów 107.	!	!LO:TX:b:t=107 Taktów	!	!	!	!	!	!	!	!LO:TX:a:t=107	!LO:TX:b:t=107	!	!	!	!
8r	.	8r	.	.	8r	.	8r	.	8r	.	8r	.	8r	.	8r	8r	.	.	.	.
==	==	==	==	==	==	==	==	==	==	==	==	==	==	==	==	==	==	==	==	==
*-	*-	*-	*-	*-	*-	*-	*-	*-	*-	*-	*-	*-	*-	*-	*-	*-	*-	*-	*-	*-
!!!system-decoration: [(g1)][(g2)][(g3)][(g4)]{(s10,s11)}
!!!RDF**kern: | = vertical stroke
!!!ENC: Mateusz Solarz
!!!END: 2020-09-08
!!!AIN: 1 bass 2 cor 2 flt 1 organ 2 soprn 2 violn
!!!ENC: Marta Lawrence
!!!END: 2022-01-30
